%1
(00007952)
(ProFirst V9.5.3369 - PP V2.0.45)
(DATE: 11.10.2016  14:28:20)
(MACHINE: SATO CNCTYPE: 3010)
(SHEET S355J2+N 6090 X 390 X 50)
G253 ( USEDSHEET S355J2+N 5596.3427934375 X 342.751039976158 X 50)
G91
(TECHTABLE AUTOGEN : 0 
G253 (Teil 1: 0536-731-01-00 Pos.10)
M05
G1 X748.1 Y146.851 
M06
G41 R=P1100 E0
M7
G01 X30 Y0 
G01 X0 Y35 
G03 X-20 Y20 I-20 J0
G01 X-410 Y0 
G03 X-20 Y-20 I0 J-20
G01 X0 Y-70 
G03 X20 Y-20 I20 J0
G01 X410 Y0 
G03 X20 Y20 I0 J20
G01 X0 Y35 
M8
G40
M05
G1 X334.456 Y-115.849 
M06
G41 R=P1100 E0
M7
G01 X-0.147 Y-25.179 
G01 X-13.059 Y1.028 
G01 X-1092.5 Y0 
G01 X0 Y61.25 
G01 X31.25 Y0 
G03 X18.75 Y18.75 I0 J18.75
G01 X0 Y140 
G03 X-18.75 Y18.75 I-18.75 J0
G01 X-31.25 Y0 
G01 X0 Y97.15 
G01 X181.491 Y0 
G01 X69.282 Y-40 
G01 X130.85 Y0 
G01 X30 Y-30 
G01 X269.254 Y0 
G01 X30 Y30 
G01 X130.85 Y0 
G01 X69.282 Y40 
G01 X181.491 Y0 
G01 X0 Y-97.15 
G01 X-31.25 Y0 
G03 X-18.75 Y-18.75 I0 J-18.75
G01 X0 Y-140 
G03 X18.75 Y-18.75 I18.75 J0
G01 X31.25 Y0 
G01 X0 Y-61.25 
G01 X0.214 Y-2.954 
M8
G40
G253 (Teil 2: 0536-731-01-00 Pos.10)
M05
G1 X768.918 Y142.954 
M06
G41 R=P1100 E0
M7
G01 X30 Y0 
G01 X0 Y35 
G03 X-20 Y20 I-20 J0
G01 X-410 Y0 
G03 X-20 Y-20 I0 J-20
G01 X0 Y-70 
G03 X20 Y-20 I20 J0
G01 X410 Y0 
G03 X20 Y20 I0 J20
G01 X0 Y35 
M8
G40
M05
G1 X337.794 Y-105.891 
M06
G41 R=P1100 E0
M7
G01 X0 Y-34.691 
G01 X-16.544 Y0.582 
G01 X-1092.5 Y0 
G01 X0 Y61.25 
G01 X31.25 Y0 
G03 X18.75 Y18.75 I0 J18.75
G01 X0 Y140 
G03 X-18.75 Y18.75 I-18.75 J0
G01 X-31.25 Y0 
G01 X0 Y97.15 
G01 X181.491 Y0 
G01 X69.282 Y-40 
G01 X130.85 Y0 
G01 X30 Y-30 
G01 X269.254 Y0 
G01 X30 Y30 
G01 X130.85 Y0 
G01 X69.282 Y40 
G01 X181.491 Y0 
G01 X0 Y-97.15 
G01 X-31.25 Y0 
G03 X-18.75 Y-18.75 I0 J-18.75
G01 X0 Y-140 
G03 X18.75 Y-18.75 I18.75 J0
G01 X31.25 Y0 
G01 X0 Y-61.25 
G01 X-0.073 Y-3.735 
M8
G40
G253 (Teil 3: 0536-731-01-00 Pos.10)
M05
G1 X773.426 Y144.945 
M06
G41 R=P1100 E0
M7
G01 X30 Y0 
G01 X0 Y33.79 
G03 X-20 Y20 I-20 J0
G01 X-410 Y0 
G03 X-20 Y-20 I0 J-20
G01 X0 Y-70 
G03 X20 Y-20 I20 J0
G01 X410 Y0 
G03 X20 Y20 I0 J20
G01 X0 Y36.21 
M8
G40
M05
G1 X335.446 Y-114.731 
M06
G41 R=P1100 E0
M7
G01 X-0.453 Y-26.821 
G01 X-13.743 Y0.342 
G01 X-1092.5 Y0 
G01 X0 Y61.25 
G01 X31.25 Y0 
G03 X18.75 Y18.75 I0 J18.75
G01 X0 Y140 
G03 X-18.75 Y18.75 I-18.75 J0
G01 X-31.25 Y0 
G01 X0 Y97.15 
G01 X181.491 Y0 
G01 X69.282 Y-40 
G01 X130.85 Y0 
G01 X30 Y-30 
G01 X269.254 Y0 
G01 X30 Y30 
G01 X130.85 Y0 
G01 X69.282 Y40 
G01 X181.491 Y0 
G01 X0 Y-97.15 
G01 X-31.25 Y0 
G03 X-18.75 Y-18.75 I0 J-18.75
G01 X0 Y-140 
G03 X18.75 Y-18.75 I18.75 J0
G01 X31.25 Y0 
G01 X0 Y-61.25 
G01 X0.149 Y-2.614 
M8
G40
G253 (Teil 4: 0536-731-01-00 Pos.10)
M05
G1 X772.854 Y142.614 
M06
G41 R=P1100 E0
M7
G01 X30 Y0 
G01 X0 Y35 
G03 X-20 Y20 I-20 J0
G01 X-410 Y0 
G03 X-20 Y-20 I0 J-20
G01 X0 Y-70 
G03 X20 Y-20 I20 J0
G01 X410 Y0 
G03 X20 Y20 I0 J20
G01 X0 Y35 
M8
G40
M05
G1 X337.178 Y-107.98 
M06
G41 R=P1100 E0
M7
G01 X0.241 Y-32.407 
G01 X-16.169 Y0.387 
G01 X-1092.5 Y0 
G01 X0 Y61.25 
G01 X31.25 Y0 
G03 X18.75 Y18.75 I0 J18.75
G01 X0 Y140 
G03 X-18.75 Y18.75 I-18.75 J0
G01 X-31.25 Y0 
G01 X0 Y97.15 
G01 X181.491 Y0 
G01 X69.282 Y-40 
G01 X130.85 Y0 
G01 X30 Y-30 
G01 X269.254 Y0 
G01 X30 Y30 
G01 X130.85 Y0 
G01 X69.282 Y40 
G01 X181.491 Y0 
G01 X0 Y-97.15 
G01 X-31.25 Y0 
G03 X-18.75 Y-18.75 I0 J-18.75
G01 X0 Y-140 
G03 X18.75 Y-18.75 I18.75 J0
G01 X31.25 Y0 
G01 X0 Y-61.25 
G01 X0.258 Y-3.289 
M8
G40
G253 (Teil 5: 0536-731-01-00 Pos.10)
M05
G1 X776.247 Y143.289 
M06
G41 R=P1100 E0
M7
G01 X30 Y0 
G01 X0 Y35 
G03 X-20 Y20 I-20 J0
G01 X-410 Y0 
G03 X-20 Y-20 I0 J-20
G01 X0 Y-70 
G03 X20 Y-20 I20 J0
G01 X410 Y0 
G03 X20 Y20 I0 J20
G01 X0 Y35 
M8
G40
M05
G1 X336.499 Y-124.436 
M06
G41 R=P1100 E0
M7
G01 X0 Y-16.76 
G01 X-15.249 Y1.196 
G01 X-1092.5 Y0 
G01 X0 Y61.25 
G01 X31.25 Y0 
G03 X18.75 Y18.75 I0 J18.75
G01 X0 Y140 
G03 X-18.75 Y18.75 I-18.75 J0
G01 X-31.25 Y0 
G01 X0 Y97.15 
G01 X181.491 Y0 
G01 X69.282 Y-40 
G01 X130.85 Y0 
G01 X30 Y-30 
G01 X269.254 Y0 
G01 X30 Y30 
G01 X130.85 Y0 
G01 X69.282 Y40 
G01 X181.491 Y0 
G01 X0 Y-97.15 
G01 X-31.25 Y0 
G03 X-18.75 Y-18.75 I0 J-18.75
G01 X0 Y-140 
G03 X18.75 Y-18.75 I18.75 J0
G01 X31.25 Y0 
G01 X0 Y-61.25 
G01 X-0.25 Y-3.215 
M8
G40
G99
