%1
(00001455)
(ProFirst V7.5.533 - PP V2.0.34)
(DATE: 28.09.2012  10:16:16)
(MACHINE: SATO CNCTYPE: 3010)
(SHEET S355J2+N 13500 X 1980 X 40)
G253 ( USEDSHEET S355J2+N 0 X 0 X 40)
G253 (WIEDEHOLUNGEN 4)
G91
(TECHTABLE AUTOGEN : 0 
G253 (Teil 1: Art. 10.842.168.1)
M05
G1 X1052.276 Y836.411 
M06
G41 R=P1100 E0
M7
G01 X30.045 Y0 
G01 X2.6 Y1.5 
G01 X0 Y58.5 
G02 X10 Y10 I10 J0
G01 X89.5 Y0 
G03 X10 Y10 I0 J10
G01 X0 Y75.818 
G02 X8.781 Y9.925 I10.045 J-0.039
G01 X106.828 Y13.118 
G03 X4.318 Y4.115 I-0.657 J5.013
G01 X0.087 Y3.644 
G02 X4.999 Y4.88 I4.999 J-0.12
G01 X85.987 Y0 
G02 X5 Y-5 I0 J-5
G01 X0 Y-20.356 
G01 X2.527 Y-43.819 
G03 X7.75 Y-16.695 I25.15 J1.528
G01 X30.908 Y-29.33 
G02 X21.816 Y-50.777 I-48.184 J-50.777
G01 X0 Y-51.046 
G02 X-21.816 Y-50.777 I-70 J0
G01 X-30.908 Y-29.33 
G03 X-7.75 Y-16.695 I17.4 J-18.224
G01 X-2.527 Y-43.819 
G01 X0 Y-20.356 
G02 X-5 Y-5 I-5 J0
G01 X-86 Y0 
G02 X-5 Y5 I0 J5
G01 X0 Y2.676 
G03 X-4.391 Y4.963 I-5.041 J-0.036
G01 X-106.828 Y13.118 
G02 X-8.781 Y9.926 I1.263 J9.965
G01 X0 Y75.818 
G03 X-10 Y10 I-10 J0
G01 X-89.5 Y0 
G02 X-10 Y10 I0 J10
G01 X0 Y58.5 
G01 X-2.6 Y1.5 
G01 X-7.359 Y4.436 
M8
G40
G253 (Teil 2: Art. 10.842.168.1)
M05
G1 X-119.02 Y181.708 
M06
G41 R=P1100 E0
M7
G01 X11.938 Y23.733 
G01 X-0.156 Y2.998 
G01 X-52.124 Y26.558 
G02 X-4.37 Y13.45 I4.54 J8.91
G01 X40.632 Y79.745 
G03 X-4.37 Y13.45 I-8.91 J4.54
G01 X-67.554 Y34.421 
G02 X-4.857 Y12.33 I4.595 J8.932
G01 X36.811 Y101.14 
G03 X-1.706 Y5.716 I-4.765 J1.69
G01 X-3.207 Y1.732 
G02 X-2.079 Y6.669 I2.376 J4.399
G01 X39.037 Y76.615 
G02 X6.725 Y2.185 I4.455 J-2.27
G01 X18.137 Y-9.241 
G01 X40.19 Y-17.642 
G03 X18.394 Y-0.675 I10.057 J23.103
G01 X40.165 Y14.224 
G02 X55.147 Y-3.614 I23.367 J-65.985
G01 X45.483 Y-23.175 
G02 X35.338 Y-42.49 I-31.779 J-62.37
G01 X12.101 Y-40.854 
G03 X11.357 Y-14.485 I24.137 J7.23
G01 X37.896 Y-22.145 
G01 X18.137 Y-9.241 
G02 X2.185 Y-6.725 I-2.27 J-4.455
G01 X-39.043 Y-76.627 
G02 X-6.725 Y-2.185 I-4.455 J2.27
G01 X-2.385 Y1.215 
G03 X-6.415 Y-1.659 I-2.256 J-4.508
G01 X-60.187 Y-89.229 
G02 X-12.83 Y-3.318 I-8.305 J5.65
G01 X-67.554 Y34.42 
G03 X-13.45 Y-4.37 I-4.54 J-8.91
G01 X-40.632 Y-79.745 
G02 X-13.45 Y-4.37 I-8.91 J4.54
G01 X-52.124 Y26.558 
G01 X-2.517 Y-1.636 
G01 X-8.134 Y-3.618 
M8
G40
G253 (Teil 3: Art. 10.842.168.1)
M05
G1 X-243.662 Y-23.305 
M06
G41 R=P1100 E0
M7
G01 X-12.924 Y25.767 
G01 X-2.517 Y1.636 
G01 X-52.124 Y-26.558 
G02 X-13.45 Y4.37 I-4.54 J8.91
G01 X-40.632 Y79.745 
G03 X-13.45 Y4.37 I-8.91 J-4.54
G01 X-67.554 Y-34.421 
G02 X-12.83 Y3.318 I-4.525 J8.968
G01 X-60.187 Y89.229 
G03 X-5.627 Y1.979 I-4.168 J-2.862
G01 X-3.287 Y-1.577 
G02 X-6.618 Y2.238 I-2.163 J4.508
G01 X-39.037 Y76.615 
G02 X2.185 Y6.725 I4.455 J2.27
G01 X18.137 Y9.241 
G01 X37.896 Y22.145 
G03 X11.357 Y14.484 I-12.779 J21.715
G01 X12.101 Y40.855 
G02 X35.338 Y42.49 I67.118 J-19.88
G01 X45.483 Y23.175 
G02 X55.147 Y3.614 I31.779 J-62.37
G01 X40.165 Y-14.224 
G03 X18.394 Y0.674 I8.338 J23.777
G01 X40.19 Y17.642 
G01 X18.137 Y9.241 
G02 X6.725 Y-2.185 I2.27 J-4.455
G01 X39.043 Y-76.627 
G02 X-2.185 Y-6.725 I-4.455 J-2.27
G01 X-2.385 Y-1.215 
G03 X-2.429 Y-6.165 I2.321 J-4.475
G01 X36.811 Y-101.14 
G02 X-4.857 Y-12.33 I-9.452 J-3.398
G01 X-67.554 Y-34.421 
G03 X-4.37 Y-13.45 I4.54 J-8.91
G01 X40.632 Y-79.745 
G02 X-4.37 Y-13.45 I-8.91 J-4.54
G01 X-52.124 Y-26.558 
G01 X-0.156 Y-2.998 
G01 X-0.887 Y-8.397 
M8
G40
G253 (Teil 4: Art. 10.842.168.1)
M05
G1 X-83.347 Y-200.127 
M06
G41 R=P1100 E0
M7
G01 X-31.66 Y0 
G01 X-2.6 Y-1.5 
G01 X0 Y-58.5 
G02 X-10 Y-10 I-10 J0
G01 X-89.5 Y0 
G03 X-10 Y-10 I0 J-10
G01 X0 Y-75.818 
G02 X-8.781 Y-9.925 I-10.045 J0.039
G01 X-106.828 Y-13.118 
G03 X-4.318 Y-4.115 I0.657 J-5.013
G01 X-0.087 Y-3.644 
G02 X-4.999 Y-4.88 I-4.999 J0.12
G01 X-85.987 Y0 
G02 X-5 Y5 I0 J5
G01 X0 Y20.356 
G01 X-2.527 Y43.819 
G03 X-7.75 Y16.695 I-25.15 J-1.528
G01 X-30.908 Y29.33 
G02 X-21.816 Y50.778 I48.184 J50.777
G01 X0 Y51.045 
G02 X21.816 Y50.777 I70 J0
G01 X30.907 Y29.329 
G03 X7.75 Y16.695 I-17.4 J18.224
G01 X2.527 Y43.819 
G01 X0 Y20.356 
G02 X5 Y5 I5 J0
G01 X86 Y0 
G02 X5 Y-5 I0 J-5
G01 X0 Y-2.676 
G03 X4.391 Y-4.963 I5.041 J0.036
G01 X106.828 Y-13.118 
G02 X8.781 Y-9.925 I-1.263 J-9.965
G01 X0 Y-75.818 
G03 X10 Y-10 I10 J0
G01 X89.5 Y0 
G02 X10 Y-10 I0 J-10
G01 X0 Y-58.5 
G01 X2.6 Y-1.5 
G01 X6.942 Y-5.208 
M8
G40
G253 (Teil 5: Art. 10.842.168.1)
M05
G1 X119.629 Y-181.24 
M06
G41 R=P1100 E0
M7
G01 X-11.412 Y-23.708 
G01 X0.156 Y-2.998 
G01 X52.124 Y-26.558 
G02 X4.37 Y-13.45 I-4.54 J-8.91
G01 X-40.632 Y-79.745 
G03 X4.37 Y-13.45 I8.91 J-4.54
G01 X67.554 Y-34.421 
G02 X4.857 Y-12.33 I-4.595 J-8.932
G01 X-36.811 Y-101.14 
G03 X1.706 Y-5.716 I4.765 J-1.69
G01 X3.207 Y-1.732 
G02 X2.079 Y-6.669 I-2.376 J-4.399
G01 X-39.037 Y-76.615 
G02 X-6.725 Y-2.185 I-4.455 J2.27
G01 X-18.137 Y9.241 
G01 X-40.19 Y17.642 
G03 X-18.394 Y0.674 I-10.056 J-23.103
G01 X-40.165 Y-14.224 
G02 X-55.147 Y3.615 I-23.367 J65.985
G01 X-45.482 Y23.174 
G02 X-35.338 Y42.491 I31.78 J62.37
G01 X-12.101 Y40.853 
G03 X-11.357 Y14.485 I-24.137 J-7.231
G01 X-37.896 Y22.145 
G01 X-18.137 Y9.241 
G02 X-2.185 Y6.725 I2.27 J4.455
G01 X39.043 Y76.626 
G02 X6.725 Y2.185 I4.455 J-2.27
G01 X2.385 Y-1.215 
G03 X6.415 Y1.659 I2.256 J4.508
G01 X60.187 Y89.229 
G02 X12.83 Y3.318 I8.305 J-5.65
G01 X67.554 Y-34.421 
G03 X13.45 Y4.37 I4.54 J8.91
G01 X40.632 Y79.745 
G02 X13.45 Y4.37 I8.91 J-4.54
G01 X52.124 Y-26.558 
G01 X2.517 Y1.636 
G01 X8.459 Y2.64 
M8
G40
G253 (Teil 6: Art. 10.842.168.1)
M05
G1 X240.423 Y21.835 
M06
G41 R=P1100 E0
M7
G01 X13.502 Y-24.815 
G01 X2.545 Y-1.591 
G01 X51.652 Y27.464 
G02 X13.524 Y-4.135 I4.695 J-8.829
G01 X42.018 Y-79.024 
G03 X13.524 Y-4.135 I8.83 J4.695
G01 X66.943 Y35.594 
G02 X12.886 Y-3.094 I4.681 J-8.887
G01 X61.735 Y-88.165 
G03 X5.66 Y-1.881 I4.118 J2.934
G01 X3.259 Y1.634 
G02 X6.656 Y-2.122 I2.241 J-4.47
G01 X40.368 Y-75.922 
G02 X-2.067 Y-6.762 I-4.415 J-2.347
G01 X-17.973 Y-9.557 
G01 X-37.504 Y-22.803 
G03 X-11.103 Y-14.681 I13.157 J-21.489
G01 X-11.386 Y-41.06 
G02 X-34.592 Y-43.101 I-67.454 J18.706
G01 X-45.071 Y-23.964 
G02 X-55.076 Y-4.576 I-32.863 J61.807
G01 X-40.406 Y13.52 
G03 X-18.38 Y-0.995 I-7.921 J-23.919
G01 X-39.876 Y-18.341 
G01 X-17.973 Y-9.557 
G02 X-6.762 Y2.067 I-2.347 J4.415
G01 X-40.375 Y75.933 
G02 X2.067 Y6.762 I4.415 J2.347
G01 X2.363 Y1.256 
G03 X2.321 Y6.206 I-2.398 J4.434
G01 X-38.571 Y100.482 
G02 X4.641 Y12.413 I9.392 J3.563
G01 X66.943 Y35.594 
G03 X4.135 Y13.524 I-4.695 J8.83
G01 X-42.018 Y79.024 
G02 X4.135 Y13.524 I8.83 J4.695
G01 X51.652 Y27.464 
G01 X0.104 Y3 
G01 X0.67 Y8.733 
M8
G40
G253 (Teil 7: Neubacher Scheibe s40 +2mm bei Stege)
M05
G1 X61.006 Y239.749 
M06
G41 R=P1100 E0
M7
G01 X-22.016 Y12.682 
G01 X-3.002 Y0.001 
G03 X-5.968 Y-23.69 I44.032 J-23.69
G01 X0 Y-55.425 
G03 X25 Y-43.301 I50 J0
G01 X345.358 Y-199.393 
G03 X71.28 Y24.375 I25 J43.301
G03 X0.003 Y492.056 I-601.772 J246.032
G03 X-71.282 Y24.383 I-46.283 J-18.919
G01 X-345.359 Y-199.393 
G03 X-17.532 Y-17.014 I25 J-43.301
G01 X1.502 Y-2.599 
G01 X2.871 Y-5.919 
M8
G40
M05
G1 X-109.805 Y139.231 
M06
G41 R=P1100 E0
M7
G01 X-22.066 Y-12.68 
G01 X-1.502 Y-2.598 
G03 X17.531 Y-17.014 I42.532 J26.287
G01 X48.001 Y-27.713 
G03 X50 Y-0.001 I25 J43.301
G01 X345.359 Y199.393 
G03 X14.531 Y73.918 I-25 J43.301
G03 X-426.139 Y246.032 I-513.956 J-398.134
G03 X-56.75 Y-49.542 I-6.75 J-49.542
G01 X0 Y-398.786 
G03 X5.968 Y-23.69 I50 J0
G01 X3.002 Y0.001 
G01 X8.175 Y-0.487 
M8
G40
M05
G1 X-177.261 Y-26.107 
M06
G41 R=P1100 E0
M7
G01 X0.115 Y-24.808 
G01 X1.499 Y-2.6 
G03 X23.5 Y6.676 I-1.499 J49.978
G01 X48.001 Y27.713 
G03 X25 Y43.301 I-25 J43.301
G01 X0 Y398.786 
G03 X-56.75 Y49.542 I-50 J0
G03 X-426.138 Y-246.031 I87.817 J-644.166
G03 X14.53 Y-73.918 I39.53 J-30.617
G01 X345.358 Y-199.393 
G03 X23.499 Y-6.676 I25 J43.301
G01 X1.501 Y2.6 
G01 X4.993 Y5.845 
M8
G40
M05
G1 X-69.356 Y-163.773 
M06
G41 R=P1100 E0
M7
G01 X24.394 Y-14.105 
G01 X3.001 Y-0.002 
G03 X5.969 Y23.69 I-44.031 J23.691
G01 X0 Y55.427 
G03 X-25 Y43.301 I-50 J0
G01 X-345.358 Y199.393 
G03 X-71.28 Y-24.376 I-25 J-43.301
G03 X0 Y-492.062 I601.773 J-246.031
G03 X71.279 Y-24.376 I46.28 J18.925
G01 X345.359 Y199.393 
G03 X17.532 Y17.013 I-25 J43.301
G01 X-1.501 Y2.6 
G01 X-3.067 Y7.086 
M8
G40
M05
G1 X266.692 Y44.316 
M06
G41 R=P1100 E0
M7
G01 X31.736 Y0 
G01 X2.6 Y1.5 
G03 X-257.991 Y-1.499 I-128.991 J-1.499
G03 X257.991 Y-1.501 I129 J0
G01 X-2.6 Y1.5 
G01 X-9.184 Y4.815 
M8
G40
M05
G1 X-178.092 Y-599.413 
M06
G41 R=P1100 E0
M7
G01 X27.273 Y0.11 
G01 X2.611 Y1.48 
G01 X0 Y397.286 
G03 X-25 Y43.301 I-50 J0
G01 X-48 Y27.713 
G03 X-50 Y0 I-25 J-43.301
G01 X-345.358 Y-199.393 
G03 X-14.53 Y-73.918 I25 J-43.301
G03 X426.132 Y-246.03 I513.956 J398.135
G03 X56.734 Y48.041 I6.757 J49.541
G01 X-2.589 Y1.52 
G01 X-7.6 Y4.364 
M8
G40
M05
G1 X529.711 Y211.913 
M06
G41 R=P1100 E0
M7
G01 X23.308 Y-18.227 
G01 X2.976 Y-0.387 
G03 X-15.425 Y72.724 I-40.426 J29.423
G01 X-345.359 Y199.393 
G03 X-50 Y0 I-25 J-43.301
G01 X-48 Y-27.713 
G03 X-25 Y-43.301 I25 J-43.301
G01 X0 Y-398.785 
G03 X56.75 Y-49.542 I50 J0
G03 X425.212 Y244.838 I-87.817 J644.166
G01 X-1.154 Y2.773 
G01 X-3.179 Y8.326 
M8
G40
M05
G1 X-21.742 Y-329.7 
M06
G41 R=P1100 E0
M7
G01 X0 Y27.775 
G01 X-6.979 Y9.663 
G01 X-2.724 Y1.26 
G02 X-955.593 Y1357.365 I-477.182 J679.115
G02 X958.037 Y-1355.641 I478.411 J-678.25
G01 X0.28 Y-2.984 
G01 X0.207 Y-7.067 
M8
G40
G253 (Teil 8: VERSTEIFUNGSBLECH__SWD_9602-0001-P2098_001_Blatt2)
M05
G1 X141.683 Y-55.504 
M06
G41 R=P1100 E0
M7
G01 X-32.606 Y0 
G01 X-2.6 Y-1.5 
G03 X69.968 Y1.499 I34.968 J1.5
G03 X-69.968 Y1.5 I-35 J0.001
G01 X2.6 Y-1.5 
G01 X7.445 Y-5.053 
M8
G40
M05
G1 X419.923 Y-54.947 
M06
G41 R=P1100 E0
M7
G01 X-25 Y0 
G01 X-267.715 Y0 
G03 X-24.205 Y-2.974 I0 J-100
G01 X-58.717 Y-14.648 
G02 X-59.269 Y146.958 I-19.364 J77.621
G03 X39.997 Y42.833 I-49.882 J86.67
G01 X59.908 Y122.831 
G01 X310 Y0 
G03 X30 Y-30 I30 J0
G01 X0 Y-195 
G03 X-30 Y-30 I0 J-30
G01 X0 Y-40 
G01 X0 Y-5 
M8
G40
(HEADS 1 PITCH 0)
G253 (ANZAHL BRENNER:1 ABSTAND:0)
G253 (Teil 9: VERSTEIFUNGSBLECH__SWD_9602-0001-P2098_001_Blatt2)
M05
G1 X-1736.811 Y1512.985 
M06
G41 R=P1100 E0
M7
G01 X30.047 Y0 
G01 X2.6 Y1.5 
G03 X-69.968 Y-1.5 I-34.968 J-1.5
G03 X69.968 Y-1.5 I35 J0
G01 X-2.6 Y1.5 
G01 X-7.898 Y4.537 
M8
G40
M05
G1 X232.856 Y66.458 
M06
G41 R=P1100 E0
M7
G01 X-22.326 Y-10.996 
G01 X-122.83 Y-59.908 
G03 X-42.833 Y-39.997 I43.837 J-89.879
G02 X-146.958 Y59.27 I-69.336 J39.906
G01 X14.648 Y58.716 
G03 X2.974 Y24.204 I-97.026 J24.205
G01 X0 Y267.716 
G01 X40 Y0 
G03 X30 Y30 I0 J30
G01 X195 Y0 
G03 X30 Y-30 I30 J0
G01 X0 Y-310 
G01 X0 Y-7.219 
M8
G40
G253 (Teil 10: Art. 10.842.194.0)
M05
G1 X508.058 Y185.115 
M06
G41 R=P1100 E0
M7
G01 X0 Y-34.1 
G01 X-15.768 Y0 
G01 X-2.902 Y0.768 
G02 X-2.328 Y-0.575 I-2.328 J4.425
G01 X-68 Y0 
G03 X-10 Y-10 I0 J-10
G01 X0 Y-17.5 
G02 X-5 Y-5 I-5 J0
G01 X-240 Y0 
G02 X-5 Y5 I0 J5
G01 X0 Y17.5 
G03 X-10 Y10 I-10 J0
G01 X-68 Y0 
G02 X-5 Y5 I0 J5
G01 X0 Y110 
G02 X5 Y5 I5 J0
G01 X53.139 Y0 
G02 X4.83 Y-3.325 I-0.137 J-5.37
G03 X3.636 Y-1.802 I3.4 J2.291
G01 X36.583 Y2.109 
G03 X19.338 Y12.32 I-1.353 J23.461
G02 X8.456 Y15.609 I402.921 J-208.17
G02 X44.794 Y26.089 I44.831 J-25.474
G01 X64.485 Y0 
G02 X45.345 Y-27.084 I0 J-51.5
G01 X7.868 Y-14.613 
G03 X19.338 Y-12.32 I20.691 J11.141
G01 X36.62 Y-2.111 
G03 X4.227 Y2.835 I0.178 J4.303
G02 X4.203 Y2.294 I4.235 J-2.761
G01 X53.139 Y0 
G02 X5 Y-5 I0 J-5
G01 X0 Y-110 
G02 X-0.559 Y-2.296 I-5 J0
G01 X0.788 Y-2.896 
G01 X1.642 Y-5.147 
M8
G40
G253 (Teil 11: VERSTEIFUNGSBLECH__SWD_9602-0001-P2098_001_Blatt2)
M05
G1 X223.916 Y139.571 
M06
G41 R=P1100 E0
M7
G01 X-36.361 Y0 
G01 X-2.6 Y-1.5 
G03 X69.968 Y1.499 I34.968 J1.5
G03 X-69.968 Y1.5 I-35 J0.001
G01 X2.6 Y-1.5 
G01 X4.578 Y-3.971 
M8
G40
M05
G1 X453.657 Y-201.028 
M06
G41 R=P1100 E0
M7
G01 X-25.868 Y0 
G03 X-30 Y-30 I0 J-30
G01 X-310 Y0 
G01 X-59.908 Y122.83 
G03 X-39.997 Y42.833 I-89.879 J-43.837
G02 X59.27 Y146.958 I39.906 J69.336
G01 X58.716 Y-14.648 
G03 X24.204 Y-2.974 I24.205 J97.026
G01 X267.716 Y0 
G01 X0 Y-40 
G03 X30 Y-30 I30 J0
G01 X0 Y-195 
G01 X0 Y-7.731 
M8
G40
G253 (Teil 12: VERSTEIFUNGSBLECH__SWD_9602-0001-P2098_001_Blatt2)
M05
G1 X185.456 Y-331.667 
M06
G41 R=P1100 E0
M7
G01 X30.048 Y0 
G01 X2.6 Y1.5 
G03 X-69.968 Y-1.5 I-34.968 J-1.5
G03 X69.968 Y-1.5 I35 J0
G01 X-2.6 Y1.5 
G01 X-7.898 Y4.537 
M8
G40
M05
G1 X8.669 Y-118.974 
M06
G41 R=P1100 E0
M7
G01 X-9.682 Y35.252 
G01 X-2.177 Y2.067 
G02 X-98.9 Y96.482 I-21.279 J77.118
G01 X14.648 Y58.716 
G03 X2.974 Y24.204 I-97.026 J24.205
G01 X0 Y267.716 
G01 X40 Y0 
G03 X30 Y30 I0 J30
G01 X195 Y0 
G03 X30 Y-30 I30 J0
G01 X0 Y-310 
G01 X-122.83 Y-59.908 
G03 X-42.833 Y-39.997 I43.837 J-89.879
G02 X-45.182 Y-36.361 I-69.336 J39.906
G01 X-0.699 Y-2.919 
G01 X-2.221 Y-9.15 
M8
G40
G253 (Teil 13: Art. 10.842.194.0)
M05
G1 X247.711 Y574.883 
M06
G41 R=P1100 E0
M7
G01 X0 Y-34.1 
G01 X-15.768 Y0 
G01 X-2.902 Y0.768 
G02 X-2.328 Y-0.575 I-2.328 J4.425
G01 X-68 Y0 
G03 X-10 Y-10 I0 J-10
G01 X0 Y-17.5 
G02 X-5 Y-5 I-5 J0
G01 X-240 Y0 
G02 X-5 Y5 I0 J5
G01 X0 Y17.5 
G03 X-10 Y10 I-10 J0
G01 X-68 Y0 
G02 X-5 Y5 I0 J5
G01 X0 Y110 
G02 X5 Y5 I5 J0
G01 X53.139 Y0 
G02 X4.83 Y-3.325 I-0.137 J-5.37
G03 X3.636 Y-1.802 I3.4 J2.291
G01 X36.583 Y2.109 
G03 X19.338 Y12.32 I-1.353 J23.461
G02 X8.456 Y15.609 I402.921 J-208.17
G02 X44.794 Y26.089 I44.831 J-25.474
G01 X64.485 Y0 
G02 X45.345 Y-27.084 I0 J-51.5
G01 X7.868 Y-14.613 
G03 X19.338 Y-12.32 I20.691 J11.141
G01 X36.62 Y-2.111 
G03 X4.227 Y2.835 I0.178 J4.303
G02 X4.203 Y2.294 I4.235 J-2.761
G01 X53.139 Y0 
G02 X5 Y-5 I0 J-5
G01 X0 Y-110 
G02 X-0.559 Y-2.296 I-5 J0
G01 X0.788 Y-2.896 
G01 X1.642 Y-5.147 
M8
G40
(HEADS 1 PITCH 230)
G253 (ANZAHL BRENNER:1 ABSTAND:230)
G253 (Teil 14: Art. 10.842.168.1)
M05
G1 X753.575 Y-1132.048 
M06
G41 R=P1100 E0
M7
G01 X13.502 Y-24.815 
G01 X2.545 Y-1.591 
G01 X51.652 Y27.464 
G02 X13.524 Y-4.135 I4.695 J-8.829
G01 X42.018 Y-79.024 
G03 X13.524 Y-4.135 I8.83 J4.695
G01 X66.943 Y35.594 
G02 X12.886 Y-3.094 I4.681 J-8.887
G01 X61.735 Y-88.165 
G03 X5.66 Y-1.881 I4.118 J2.934
G01 X3.259 Y1.634 
G02 X6.656 Y-2.122 I2.241 J-4.47
G01 X40.368 Y-75.922 
G02 X-2.067 Y-6.762 I-4.415 J-2.347
G01 X-17.973 Y-9.557 
G01 X-37.504 Y-22.803 
G03 X-11.103 Y-14.681 I13.157 J-21.489
G01 X-11.386 Y-41.06 
G02 X-34.592 Y-43.101 I-67.454 J18.706
G01 X-45.071 Y-23.964 
G02 X-55.076 Y-4.576 I-32.863 J61.807
G01 X-40.406 Y13.52 
G03 X-18.38 Y-0.995 I-7.921 J-23.919
G01 X-39.876 Y-18.341 
G01 X-17.973 Y-9.557 
G02 X-6.762 Y2.067 I-2.347 J4.415
G01 X-40.375 Y75.933 
G02 X2.067 Y6.762 I4.415 J2.347
G01 X2.363 Y1.256 
G03 X2.321 Y6.206 I-2.398 J4.434
G01 X-38.571 Y100.482 
G02 X4.641 Y12.413 I9.392 J3.563
G01 X66.943 Y35.594 
G03 X4.135 Y13.524 I-4.695 J8.83
G01 X-42.018 Y79.024 
G02 X4.135 Y13.524 I8.83 J4.695
G01 X51.652 Y27.464 
G01 X0.104 Y3 
G01 X0.67 Y8.733 
M8
G40
G253 (Teil 15: Art. 10.842.168.1)
M05
G1 X86.297 Y202.851 
M06
G41 R=P1100 E0
M7
G01 X30.045 Y0 
G01 X2.6 Y1.5 
G01 X0 Y58.5 
G02 X10 Y10 I10 J0
G01 X89.5 Y0 
G03 X10 Y10 I0 J10
G01 X0 Y75.818 
G02 X8.781 Y9.925 I10.045 J-0.039
G01 X106.828 Y13.118 
G03 X4.318 Y4.115 I-0.657 J5.013
G01 X0.087 Y3.644 
G02 X4.999 Y4.88 I4.999 J-0.12
G01 X85.987 Y0 
G02 X5 Y-5 I0 J-5
G01 X0 Y-20.356 
G01 X2.527 Y-43.819 
G03 X7.75 Y-16.695 I25.15 J1.528
G01 X30.908 Y-29.33 
G02 X21.816 Y-50.777 I-48.184 J-50.777
G01 X0 Y-51.046 
G02 X-21.816 Y-50.777 I-70 J0
G01 X-30.908 Y-29.33 
G03 X-7.75 Y-16.695 I17.4 J-18.224
G01 X-2.527 Y-43.819 
G01 X0 Y-20.356 
G02 X-5 Y-5 I-5 J0
G01 X-86 Y0 
G02 X-5 Y5 I0 J5
G01 X0 Y2.676 
G03 X-4.391 Y4.963 I-5.041 J-0.036
G01 X-106.828 Y13.118 
G02 X-8.781 Y9.926 I1.263 J9.965
G01 X0 Y75.818 
G03 X-10 Y10 I-10 J0
G01 X-89.5 Y0 
G02 X-10 Y10 I0 J10
G01 X0 Y58.5 
G01 X-2.6 Y1.5 
G01 X-7.359 Y4.436 
M8
G40
G253 (Teil 16: Art. 10.842.168.1)
M05
G1 X-119.966 Y178.41 
M06
G41 R=P1100 E0
M7
G01 X11.938 Y23.732 
G01 X-0.156 Y2.998 
G01 X-52.124 Y26.558 
G02 X-4.37 Y13.45 I4.54 J8.91
G01 X40.632 Y79.745 
G03 X-4.37 Y13.45 I-8.91 J4.54
G01 X-67.554 Y34.421 
G02 X-4.857 Y12.33 I4.595 J8.932
G01 X36.811 Y101.14 
G03 X-1.706 Y5.716 I-4.765 J1.69
G01 X-3.207 Y1.732 
G02 X-2.079 Y6.669 I2.376 J4.399
G01 X39.037 Y76.615 
G02 X6.725 Y2.185 I4.455 J-2.27
G01 X18.137 Y-9.241 
G01 X40.19 Y-17.642 
G03 X18.394 Y-0.675 I10.057 J23.103
G01 X40.165 Y14.224 
G02 X55.147 Y-3.614 I23.367 J-65.985
G01 X45.483 Y-23.175 
G02 X35.338 Y-42.49 I-31.779 J-62.37
G01 X12.101 Y-40.854 
G03 X11.357 Y-14.485 I24.137 J7.23
G01 X37.896 Y-22.145 
G01 X18.137 Y-9.241 
G02 X2.185 Y-6.725 I-2.27 J-4.455
G01 X-39.043 Y-76.627 
G02 X-6.725 Y-2.185 I-4.455 J2.27
G01 X-2.385 Y1.215 
G03 X-6.415 Y-1.659 I-2.256 J-4.508
G01 X-60.187 Y-89.229 
G02 X-12.83 Y-3.318 I-8.305 J5.65
G01 X-67.554 Y34.42 
G03 X-13.45 Y-4.37 I-4.54 J-8.91
G01 X-40.632 Y-79.745 
G02 X-13.45 Y-4.37 I-8.91 J4.54
G01 X-52.124 Y26.558 
G01 X-2.517 Y-1.636 
G01 X-8.134 Y-3.618 
M8
G40
G253 (Teil 17: Art. 10.842.168.1)
M05
G1 X-243.833 Y-19.765 
M06
G41 R=P1100 E0
M7
G01 X-12.924 Y25.767 
G01 X-2.517 Y1.636 
G01 X-52.124 Y-26.558 
G02 X-13.45 Y4.37 I-4.54 J8.91
G01 X-40.632 Y79.745 
G03 X-13.45 Y4.37 I-8.91 J-4.54
G01 X-67.554 Y-34.421 
G02 X-12.83 Y3.318 I-4.525 J8.968
G01 X-60.187 Y89.229 
G03 X-5.627 Y1.979 I-4.168 J-2.862
G01 X-3.287 Y-1.577 
G02 X-6.618 Y2.238 I-2.163 J4.508
G01 X-39.037 Y76.615 
G02 X2.185 Y6.725 I4.455 J2.27
G01 X18.137 Y9.241 
G01 X37.896 Y22.145 
G03 X11.357 Y14.484 I-12.779 J21.715
G01 X12.101 Y40.855 
G02 X35.338 Y42.49 I67.118 J-19.88
G01 X45.483 Y23.175 
G02 X55.147 Y3.614 I31.779 J-62.37
G01 X40.165 Y-14.224 
G03 X18.394 Y0.674 I8.338 J23.777
G01 X40.19 Y17.642 
G01 X18.137 Y9.241 
G02 X6.725 Y-2.185 I2.27 J-4.455
G01 X39.043 Y-76.627 
G02 X-2.185 Y-6.725 I-4.455 J-2.27
G01 X-2.385 Y-1.215 
G03 X-2.429 Y-6.165 I2.321 J-4.475
G01 X36.811 Y-101.14 
G02 X-4.857 Y-12.33 I-9.452 J-3.398
G01 X-67.554 Y-34.421 
G03 X-4.37 Y-13.45 I4.54 J-8.91
G01 X40.632 Y-79.745 
G02 X-4.37 Y-13.45 I-8.91 J-4.54
G01 X-52.124 Y-26.558 
G01 X-0.156 Y-2.998 
G01 X-0.887 Y-8.397 
M8
G40
G253 (Teil 18: Art. 10.842.168.1)
M05
G1 X-81.288 Y-201.504 
M06
G41 R=P1100 E0
M7
G01 X-31.66 Y0 
G01 X-2.6 Y-1.5 
G01 X0 Y-58.5 
G02 X-10 Y-10 I-10 J0
G01 X-89.5 Y0 
G03 X-10 Y-10 I0 J-10
G01 X0 Y-75.818 
G02 X-8.781 Y-9.925 I-10.045 J0.039
G01 X-106.828 Y-13.118 
G03 X-4.318 Y-4.115 I0.657 J-5.013
G01 X-0.087 Y-3.644 
G02 X-4.999 Y-4.88 I-4.999 J0.12
G01 X-85.987 Y0 
G02 X-5 Y5 I0 J5
G01 X0 Y20.356 
G01 X-2.527 Y43.819 
G03 X-7.75 Y16.695 I-25.15 J-1.528
G01 X-30.908 Y29.33 
G02 X-21.816 Y50.778 I48.184 J50.777
G01 X0 Y51.045 
G02 X21.816 Y50.777 I70 J0
G01 X30.907 Y29.329 
G03 X7.75 Y16.695 I-17.4 J18.224
G01 X2.527 Y43.819 
G01 X0 Y20.356 
G02 X5 Y5 I5 J0
G01 X86 Y0 
G02 X5 Y-5 I0 J-5
G01 X0 Y-2.676 
G03 X4.391 Y-4.963 I5.041 J0.036
G01 X106.828 Y-13.118 
G02 X8.781 Y-9.925 I-1.263 J-9.965
G01 X0 Y-75.818 
G03 X10 Y-10 I10 J0
G01 X89.5 Y0 
G02 X10 Y-10 I0 J-10
G01 X0 Y-58.5 
G01 X2.6 Y-1.5 
G01 X6.942 Y-5.208 
M8
G40
G253 (Teil 19: Art. 10.842.168.1)
M05
G1 X118.562 Y-181.596 
M06
G41 R=P1100 E0
M7
G01 X-11.412 Y-23.708 
G01 X0.156 Y-2.998 
G01 X52.124 Y-26.558 
G02 X4.37 Y-13.45 I-4.54 J-8.91
G01 X-40.632 Y-79.745 
G03 X4.37 Y-13.45 I8.91 J-4.54
G01 X67.554 Y-34.421 
G02 X4.857 Y-12.33 I-4.595 J-8.932
G01 X-36.811 Y-101.14 
G03 X1.706 Y-5.716 I4.765 J-1.69
G01 X3.207 Y-1.732 
G02 X2.079 Y-6.669 I-2.376 J-4.399
G01 X-39.037 Y-76.615 
G02 X-6.725 Y-2.185 I-4.455 J2.27
G01 X-18.137 Y9.241 
G01 X-40.19 Y17.642 
G03 X-18.394 Y0.674 I-10.056 J-23.103
G01 X-40.165 Y-14.224 
G02 X-55.147 Y3.615 I-23.367 J65.985
G01 X-45.482 Y23.174 
G02 X-35.338 Y42.491 I31.78 J62.37
G01 X-12.101 Y40.853 
G03 X-11.357 Y14.485 I-24.137 J-7.231
G01 X-37.896 Y22.145 
G01 X-18.137 Y9.241 
G02 X-2.185 Y6.725 I2.27 J4.455
G01 X39.043 Y76.626 
G02 X6.725 Y2.185 I4.455 J-2.27
G01 X2.385 Y-1.215 
G03 X6.415 Y1.659 I2.256 J4.508
G01 X60.187 Y89.229 
G02 X12.83 Y3.318 I8.305 J-5.65
G01 X67.554 Y-34.421 
G03 X13.45 Y4.37 I4.54 J8.91
G01 X40.632 Y79.745 
G02 X13.45 Y4.37 I8.91 J-4.54
G01 X52.124 Y-26.558 
G01 X2.517 Y1.636 
G01 X8.459 Y2.64 
M8
G40
G253 (Teil 20: Neubacher Scheibe s40 +2mm bei Stege)
M05
G1 X314.849 Y246.648 
M06
G41 R=P1100 E0
M7
G01 X-22.015 Y12.682 
G01 X-3.002 Y0.001 
G03 X-5.968 Y-23.69 I44.032 J-23.69
G01 X0 Y-55.425 
G03 X25 Y-43.301 I50 J0
G01 X345.358 Y-199.393 
G03 X71.28 Y24.375 I25 J43.301
G03 X0.003 Y492.056 I-601.772 J246.032
G03 X-71.282 Y24.383 I-46.283 J-18.919
G01 X-345.359 Y-199.393 
G03 X-17.532 Y-17.014 I25 J-43.301
G01 X1.502 Y-2.599 
G01 X2.871 Y-5.919 
M8
G40
M05
G1 X-109.806 Y139.231 
M06
G41 R=P1100 E0
M7
G01 X-22.065 Y-12.68 
G01 X-1.502 Y-2.598 
G03 X17.531 Y-17.014 I42.532 J26.287
G01 X48.001 Y-27.713 
G03 X50 Y-0.001 I25 J43.301
G01 X345.359 Y199.393 
G03 X14.531 Y73.918 I-25 J43.301
G03 X-426.139 Y246.032 I-513.956 J-398.134
G03 X-56.75 Y-49.542 I-6.75 J-49.542
G01 X0 Y-398.786 
G03 X5.968 Y-23.69 I50 J0
G01 X3.002 Y0.001 
G01 X8.175 Y-0.487 
M8
G40
M05
G1 X-177.261 Y-26.107 
M06
G41 R=P1100 E0
M7
G01 X0.116 Y-24.808 
G01 X1.499 Y-2.6 
G03 X23.5 Y6.676 I-1.499 J49.978
G01 X48.001 Y27.713 
G03 X25 Y43.301 I-25 J43.301
G01 X0 Y398.786 
G03 X-56.75 Y49.542 I-50 J0
G03 X-426.138 Y-246.031 I87.817 J-644.166
G03 X14.53 Y-73.918 I39.53 J-30.617
G01 X345.358 Y-199.393 
G03 X23.499 Y-6.676 I25 J43.301
G01 X1.501 Y2.6 
G01 X4.993 Y5.845 
M8
G40
M05
G1 X-69.355 Y-163.773 
M06
G41 R=P1100 E0
M7
G01 X24.393 Y-14.105 
G01 X3.001 Y-0.002 
G03 X5.969 Y23.69 I-44.031 J23.691
G01 X0 Y55.427 
G03 X-25 Y43.301 I-50 J0
G01 X-345.358 Y199.393 
G03 X-71.28 Y-24.376 I-25 J-43.301
G03 X0 Y-492.062 I601.773 J-246.031
G03 X71.279 Y-24.376 I46.28 J18.925
G01 X345.359 Y199.393 
G03 X17.532 Y17.013 I-25 J43.301
G01 X-1.501 Y2.6 
G01 X-3.067 Y7.086 
M8
G40
M05
G1 X266.692 Y44.316 
M06
G41 R=P1100 E0
M7
G01 X31.736 Y0 
G01 X2.6 Y1.5 
G03 X-257.991 Y-1.499 I-128.991 J-1.499
G03 X257.991 Y-1.501 I129 J0
G01 X-2.6 Y1.5 
G01 X-9.184 Y4.815 
M8
G40
M05
G1 X-178.092 Y-599.413 
M06
G41 R=P1100 E0
M7
G01 X27.274 Y0.11 
G01 X2.611 Y1.48 
G01 X0 Y397.286 
G03 X-25 Y43.301 I-50 J0
G01 X-48 Y27.713 
G03 X-50 Y0 I-25 J-43.301
G01 X-345.358 Y-199.393 
G03 X-14.53 Y-73.918 I25 J-43.301
G03 X426.132 Y-246.03 I513.956 J398.135
G03 X56.734 Y48.041 I6.757 J49.541
G01 X-2.589 Y1.52 
G01 X-7.6 Y4.364 
M8
G40
M05
G1 X529.711 Y211.913 
M06
G41 R=P1100 E0
M7
G01 X23.308 Y-18.227 
G01 X2.976 Y-0.387 
G03 X-15.425 Y72.724 I-40.426 J29.423
G01 X-345.359 Y199.393 
G03 X-50 Y0 I-25 J-43.301
G01 X-48 Y-27.713 
G03 X-25 Y-43.301 I25 J-43.301
G01 X0 Y-398.785 
G03 X56.75 Y-49.542 I50 J0
G03 X425.212 Y244.838 I-87.817 J644.166
G01 X-1.154 Y2.773 
G01 X-3.179 Y8.326 
M8
G40
M05
G1 X-29.898 Y-344.703 
M06
G41 R=P1100 E0
M7
G01 X0 Y32.05 
G01 X-8.899 Y13.396 
G01 X-2.706 Y1.3 
G02 X-935.494 Y1371.295 I-467.126 J686.071
G02 X937.963 Y-1369.607 I468.367 J-685.224
G01 X0.236 Y-2.988 
G01 X-0.256 Y-7.121 
M8
G40
(HEADS 1 PITCH 0)
G253 (ANZAHL BRENNER:1 ABSTAND:0)
G253 (Teil 21: VERSTEIFUNGSBLECH__SWD_9602-0001-P2098_001_Blatt2)
M05
G1 X153.019 Y-53.456 
M06
G41 R=P1100 E0
M7
G01 X-32.822 Y0 
G01 X-2.6 Y-1.5 
G03 X69.968 Y1.499 I34.968 J1.5
G03 X-69.968 Y1.5 I-35 J0.001
G01 X2.6 Y-1.5 
G01 X5.02 Y-4.414 
M8
G40
M05
G1 X422.348 Y-55.586 
M06
G41 R=P1100 E0
M7
G01 X-25 Y0 
G01 X-267.715 Y0 
G03 X-24.205 Y-2.974 I0 J-100
G01 X-58.717 Y-14.648 
G02 X-59.269 Y146.958 I-19.364 J77.621
G03 X39.997 Y42.833 I-49.882 J86.67
G01 X59.908 Y122.831 
G01 X310 Y0 
G03 X30 Y-30 I30 J0
G01 X0 Y-195 
G03 X-30 Y-30 I0 J-30
G01 X0 Y-40 
G01 X0 Y-5 
M8
G40
G253 (Teil 22: VERSTEIFUNGSBLECH__SWD_9602-0001-P2098_001_Blatt2)
M05
G1 X-1186.342 Y1857.427 
M06
G41 R=P1100 E0
M7
G01 X26.458 Y0 
G01 X2.6 Y1.5 
G03 X-69.968 Y-1.5 I-34.968 J-1.5
G03 X69.968 Y-1.5 I35 J0
G01 X-2.6 Y1.5 
G01 X-6.61 Y3.497 
M8
G40
M05
G1 X-425.758 Y-245.045 
M06
G41 R=P1100 E0
M7
G01 X0 Y36.547 
G01 X0 Y195 
G03 X30 Y30 I0 J30
G01 X0 Y40 
G01 X267.715 Y0 
G03 X24.204 Y2.973 I0 J100
G01 X58.717 Y14.648 
G02 X59.269 Y-146.958 I19.364 J-77.621
G03 X-39.997 Y-42.833 I49.882 J-86.671
G01 X-59.908 Y-122.83 
G01 X-310 Y0 
G03 X-30 Y30 I-30 J0
G01 X-7.982 Y0 
M8
G40
G253 (Teil 23: VERSTEIFUNGSBLECH__SWD_9602-0001-P2098_001_Blatt2)
M05
G1 X806.659 Y205.301 
M06
G41 R=P1100 E0
M7
G01 X-34.73 Y0 
G01 X-2.6 Y-1.5 
G03 X69.968 Y1.499 I34.968 J1.5
G03 X-69.968 Y1.5 I-35 J0.001
G01 X2.6 Y-1.5 
G01 X3.701 Y-3.557 
M8
G40
M05
G1 X454.535 Y-201.443 
M06
G41 R=P1100 E0
M7
G01 X-25.868 Y0 
G03 X-30 Y-30 I0 J-30
G01 X-310 Y0 
G01 X-59.908 Y122.83 
G03 X-39.997 Y42.833 I-89.879 J-43.837
G02 X59.27 Y146.958 I39.906 J69.336
G01 X58.716 Y-14.648 
G03 X24.204 Y-2.974 I24.205 J97.026
G01 X267.716 Y0 
G01 X0 Y-40 
G03 X30 Y-30 I30 J0
G01 X0 Y-195 
G01 X0 Y-7.731 
M8
G40
G253 (Teil 24: VERSTEIFUNGSBLECH__SWD_9602-0001-P2098_001_Blatt2)
M05
G1 X202.234 Y-336.217 
M06
G41 R=P1100 E0
M7
G01 X23 Y0 
G03 X-70 Y0 I-35 J0
G03 X70 Y0 I35 J0
G01 X-3.536 Y3.536 
M8
G40
M05
G1 X-2.904 Y-116.509 
M06
G41 R=P1100 E0
M7
G01 X-8.768 Y32.794 
G01 X-2.079 Y2.165 
G02 X-95.334 Y97.378 I-17.713 J78.014
G01 X14.648 Y58.716 
G03 X2.974 Y24.204 I-97.026 J24.205
G01 X0 Y267.716 
G01 X40 Y0 
G03 X30 Y30 I0 J30
G01 X195 Y0 
G03 X30 Y-30 I30 J0
G01 X0 Y-310 
G01 X-122.83 Y-59.908 
G03 X-42.833 Y-39.997 I43.837 J-89.879
G02 X-48.712 Y-37.39 I-69.336 J39.906
G01 X-0.832 Y-2.883 
G01 X-2.081 Y-8.384 
M8
G40
G253 (Teil 25: Art. 10.842.194.0)
M05
G1 X244.117 Y574.995 
M06
G41 R=P1100 E0
M7
G01 X0 Y-34.1 
G01 X-15.768 Y0 
G01 X-2.902 Y0.768 
G02 X-2.328 Y-0.575 I-2.328 J4.425
G01 X-68 Y0 
G03 X-10 Y-10 I0 J-10
G01 X0 Y-17.5 
G02 X-5 Y-5 I-5 J0
G01 X-240 Y0 
G02 X-5 Y5 I0 J5
G01 X0 Y17.5 
G03 X-10 Y10 I-10 J0
G01 X-68 Y0 
G02 X-5 Y5 I0 J5
G01 X0 Y110 
G02 X5 Y5 I5 J0
G01 X53.139 Y0 
G02 X4.83 Y-3.325 I-0.137 J-5.37
G03 X3.636 Y-1.802 I3.4 J2.291
G01 X36.583 Y2.109 
G03 X19.338 Y12.32 I-1.353 J23.461
G02 X8.456 Y15.609 I402.921 J-208.17
G02 X44.794 Y26.089 I44.831 J-25.474
G01 X64.485 Y0 
G02 X45.345 Y-27.084 I0 J-51.5
G01 X7.868 Y-14.613 
G03 X19.338 Y-12.32 I20.691 J11.141
G01 X36.62 Y-2.111 
G03 X4.227 Y2.835 I0.178 J4.303
G02 X4.203 Y2.294 I4.235 J-2.761
G01 X53.139 Y0 
G02 X5 Y-5 I0 J-5
G01 X0 Y-110 
G02 X-0.559 Y-2.296 I-5 J0
G01 X0.788 Y-2.896 
G01 X1.642 Y-5.147 
M8
G40
(HEADS 1 PITCH 230)
G253 (ANZAHL BRENNER:1 ABSTAND:230)
G253 (Teil 26: Art. 10.842.168.1)
M05
G1 X758.917 Y-1129.829 
M06
G41 R=P1100 E0
M7
G01 X13.502 Y-24.815 
G01 X2.545 Y-1.591 
G01 X51.652 Y27.464 
G02 X13.524 Y-4.135 I4.695 J-8.829
G01 X42.018 Y-79.024 
G03 X13.524 Y-4.135 I8.83 J4.695
G01 X66.943 Y35.594 
G02 X12.886 Y-3.094 I4.681 J-8.887
G01 X61.735 Y-88.165 
G03 X5.66 Y-1.881 I4.118 J2.934
G01 X3.259 Y1.634 
G02 X6.656 Y-2.122 I2.241 J-4.47
G01 X40.368 Y-75.922 
G02 X-2.067 Y-6.762 I-4.415 J-2.347
G01 X-17.973 Y-9.557 
G01 X-37.504 Y-22.803 
G03 X-11.103 Y-14.681 I13.157 J-21.489
G01 X-11.386 Y-41.06 
G02 X-34.592 Y-43.101 I-67.454 J18.706
G01 X-45.071 Y-23.964 
G02 X-55.076 Y-4.576 I-32.863 J61.807
G01 X-40.406 Y13.52 
G03 X-18.38 Y-0.995 I-7.921 J-23.919
G01 X-39.876 Y-18.341 
G01 X-17.973 Y-9.557 
G02 X-6.762 Y2.067 I-2.347 J4.415
G01 X-40.375 Y75.933 
G02 X2.067 Y6.762 I4.415 J2.347
G01 X2.363 Y1.256 
G03 X2.321 Y6.206 I-2.398 J4.434
G01 X-38.571 Y100.482 
G02 X4.641 Y12.413 I9.392 J3.563
G01 X66.943 Y35.594 
G03 X4.135 Y13.524 I-4.695 J8.83
G01 X-42.018 Y79.024 
G02 X4.135 Y13.524 I8.83 J4.695
G01 X51.652 Y27.464 
G01 X0.104 Y3 
G01 X0.67 Y8.733 
M8
G40
G253 (Teil 27: Art. 10.842.168.1)
M05
G1 X86.259 Y202.558 
M06
G41 R=P1100 E0
M7
G01 X30.046 Y0 
G01 X2.6 Y1.5 
G01 X0 Y58.5 
G02 X10 Y10 I10 J0
G01 X89.5 Y0 
G03 X10 Y10 I0 J10
G01 X0 Y75.818 
G02 X8.781 Y9.925 I10.045 J-0.039
G01 X106.828 Y13.118 
G03 X4.318 Y4.115 I-0.657 J5.013
G01 X0.087 Y3.644 
G02 X4.999 Y4.88 I4.999 J-0.12
G01 X85.987 Y0 
G02 X5 Y-5 I0 J-5
G01 X0 Y-20.356 
G01 X2.527 Y-43.819 
G03 X7.75 Y-16.695 I25.15 J1.528
G01 X30.908 Y-29.33 
G02 X21.816 Y-50.777 I-48.184 J-50.777
G01 X0 Y-51.046 
G02 X-21.816 Y-50.777 I-70 J0
G01 X-30.908 Y-29.33 
G03 X-7.75 Y-16.695 I17.4 J-18.224
G01 X-2.527 Y-43.819 
G01 X0 Y-20.356 
G02 X-5 Y-5 I-5 J0
G01 X-86 Y0 
G02 X-5 Y5 I0 J5
G01 X0 Y2.676 
G03 X-4.391 Y4.963 I-5.041 J-0.036
G01 X-106.828 Y13.118 
G02 X-8.781 Y9.926 I1.263 J9.965
G01 X0 Y75.818 
G03 X-10 Y10 I-10 J0
G01 X-89.5 Y0 
G02 X-10 Y10 I0 J10
G01 X0 Y58.5 
G01 X-2.6 Y1.5 
G01 X-7.359 Y4.436 
M8
G40
G253 (Teil 28: Art. 10.842.168.1)
M05
G1 X-119.656 Y180.422 
M06
G41 R=P1100 E0
M7
G01 X11.938 Y23.733 
G01 X-0.156 Y2.998 
G01 X-52.124 Y26.558 
G02 X-4.37 Y13.45 I4.54 J8.91
G01 X40.632 Y79.745 
G03 X-4.37 Y13.45 I-8.91 J4.54
G01 X-67.554 Y34.421 
G02 X-4.857 Y12.33 I4.595 J8.932
G01 X36.811 Y101.14 
G03 X-1.706 Y5.716 I-4.765 J1.69
G01 X-3.207 Y1.732 
G02 X-2.079 Y6.669 I2.376 J4.399
G01 X39.037 Y76.615 
G02 X6.725 Y2.185 I4.455 J-2.27
G01 X18.137 Y-9.241 
G01 X40.19 Y-17.642 
G03 X18.394 Y-0.675 I10.057 J23.103
G01 X40.165 Y14.224 
G02 X55.147 Y-3.614 I23.367 J-65.985
G01 X45.483 Y-23.175 
G02 X35.338 Y-42.49 I-31.779 J-62.37
G01 X12.101 Y-40.854 
G03 X11.357 Y-14.485 I24.137 J7.23
G01 X37.896 Y-22.145 
G01 X18.137 Y-9.241 
G02 X2.185 Y-6.725 I-2.27 J-4.455
G01 X-39.043 Y-76.627 
G02 X-6.725 Y-2.185 I-4.455 J2.27
G01 X-2.385 Y1.215 
G03 X-6.415 Y-1.659 I-2.256 J-4.508
G01 X-60.187 Y-89.229 
G02 X-12.83 Y-3.318 I-8.305 J5.65
G01 X-67.554 Y34.42 
G03 X-13.45 Y-4.37 I-4.54 J-8.91
G01 X-40.632 Y-79.745 
G02 X-13.45 Y-4.37 I-8.91 J4.54
G01 X-52.124 Y26.558 
G01 X-2.517 Y-1.636 
G01 X-8.134 Y-3.618 
M8
G40
G253 (Teil 29: Art. 10.842.168.1)
M05
G1 X-244.438 Y-21.534 
M06
G41 R=P1100 E0
M7
G01 X-12.924 Y25.767 
G01 X-2.517 Y1.636 
G01 X-52.124 Y-26.558 
G02 X-13.45 Y4.37 I-4.54 J8.91
G01 X-40.632 Y79.745 
G03 X-13.45 Y4.37 I-8.91 J-4.54
G01 X-67.554 Y-34.421 
G02 X-12.83 Y3.318 I-4.525 J8.968
G01 X-60.187 Y89.229 
G03 X-5.627 Y1.979 I-4.168 J-2.862
G01 X-3.287 Y-1.577 
G02 X-6.618 Y2.238 I-2.163 J4.508
G01 X-39.037 Y76.615 
G02 X2.185 Y6.725 I4.455 J2.27
G01 X18.137 Y9.241 
G01 X37.896 Y22.145 
G03 X11.357 Y14.484 I-12.779 J21.715
G01 X12.101 Y40.855 
G02 X35.338 Y42.49 I67.118 J-19.88
G01 X45.483 Y23.175 
G02 X55.147 Y3.614 I31.779 J-62.37
G01 X40.165 Y-14.224 
G03 X18.394 Y0.674 I8.338 J23.777
G01 X40.19 Y17.642 
G01 X18.137 Y9.241 
G02 X6.725 Y-2.185 I2.27 J-4.455
G01 X39.043 Y-76.627 
G02 X-2.185 Y-6.725 I-4.455 J-2.27
G01 X-2.385 Y-1.215 
G03 X-2.429 Y-6.165 I2.321 J-4.475
G01 X36.811 Y-101.14 
G02 X-4.857 Y-12.33 I-9.452 J-3.398
G01 X-67.554 Y-34.421 
G03 X-4.37 Y-13.45 I4.54 J-8.91
G01 X40.632 Y-79.745 
G02 X-4.37 Y-13.45 I-8.91 J-4.54
G01 X-52.124 Y-26.558 
G01 X-0.156 Y-2.998 
G01 X-0.887 Y-8.397 
M8
G40
G253 (Teil 30: Art. 10.842.168.1)
M05
G1 X-82.635 Y-199.149 
M06
G41 R=P1100 E0
M7
G01 X-31.661 Y0 
G01 X-2.6 Y-1.5 
G01 X0 Y-58.5 
G02 X-10 Y-10 I-10 J0
G01 X-89.5 Y0 
G03 X-10 Y-10 I0 J-10
G01 X0 Y-75.818 
G02 X-8.781 Y-9.925 I-10.045 J0.039
G01 X-106.828 Y-13.118 
G03 X-4.318 Y-4.115 I0.657 J-5.013
G01 X-0.087 Y-3.644 
G02 X-4.999 Y-4.88 I-4.999 J0.12
G01 X-85.987 Y0 
G02 X-5 Y5 I0 J5
G01 X0 Y20.356 
G01 X-2.527 Y43.819 
G03 X-7.75 Y16.695 I-25.15 J-1.528
G01 X-30.908 Y29.33 
G02 X-21.816 Y50.778 I48.184 J50.777
G01 X0 Y51.045 
G02 X21.816 Y50.777 I70 J0
G01 X30.907 Y29.329 
G03 X7.75 Y16.695 I-17.4 J18.224
G01 X2.527 Y43.819 
G01 X0 Y20.356 
G02 X5 Y5 I5 J0
G01 X86 Y0 
G02 X5 Y-5 I0 J-5
G01 X0 Y-2.676 
G03 X4.391 Y-4.963 I5.041 J0.036
G01 X106.828 Y-13.118 
G02 X8.781 Y-9.925 I-1.263 J-9.965
G01 X0 Y-75.818 
G03 X10 Y-10 I10 J0
G01 X89.5 Y0 
G02 X10 Y-10 I0 J-10
G01 X0 Y-58.5 
G01 X2.6 Y-1.5 
G01 X6.942 Y-5.208 
M8
G40
G253 (Teil 31: Art. 10.842.168.1)
M05
G1 X119.447 Y-183.289 
M06
G41 R=P1100 E0
M7
G01 X-11.412 Y-23.707 
G01 X0.156 Y-2.998 
G01 X52.124 Y-26.558 
G02 X4.37 Y-13.45 I-4.54 J-8.91
G01 X-40.632 Y-79.745 
G03 X4.37 Y-13.45 I8.91 J-4.54
G01 X67.554 Y-34.421 
G02 X4.857 Y-12.33 I-4.595 J-8.932
G01 X-36.811 Y-101.14 
G03 X1.706 Y-5.716 I4.765 J-1.69
G01 X3.207 Y-1.732 
G02 X2.079 Y-6.669 I-2.376 J-4.399
G01 X-39.037 Y-76.615 
G02 X-6.725 Y-2.185 I-4.455 J2.27
G01 X-18.137 Y9.241 
G01 X-40.19 Y17.642 
G03 X-18.394 Y0.674 I-10.056 J-23.103
G01 X-40.165 Y-14.224 
G02 X-55.147 Y3.615 I-23.367 J65.985
G01 X-45.482 Y23.174 
G02 X-35.338 Y42.491 I31.78 J62.37
G01 X-12.101 Y40.853 
G03 X-11.357 Y14.485 I-24.137 J-7.231
G01 X-37.896 Y22.145 
G01 X-18.137 Y9.241 
G02 X-2.185 Y6.725 I2.27 J4.455
G01 X39.043 Y76.626 
G02 X6.725 Y2.185 I4.455 J-2.27
G01 X2.385 Y-1.215 
G03 X6.415 Y1.659 I2.256 J4.508
G01 X60.187 Y89.229 
G02 X12.83 Y3.318 I8.305 J-5.65
G01 X67.554 Y-34.421 
G03 X13.45 Y4.37 I4.54 J8.91
G01 X40.632 Y79.745 
G02 X13.45 Y4.37 I8.91 J-4.54
G01 X52.124 Y-26.558 
G01 X2.517 Y1.636 
G01 X8.459 Y2.64 
M8
G40
G253 (Teil 32: Neubacher Scheibe s40 +2mm bei Stege)
M05
G1 X315.914 Y246.96 
M06
G41 R=P1100 E0
M7
G01 X-22.015 Y12.682 
G01 X-3.002 Y0.001 
G03 X-5.968 Y-23.69 I44.032 J-23.69
G01 X0 Y-55.425 
G03 X25 Y-43.301 I50 J0
G01 X345.358 Y-199.393 
G03 X71.28 Y24.375 I25 J43.301
G03 X0.003 Y492.056 I-601.772 J246.032
G03 X-71.282 Y24.383 I-46.283 J-18.919
G01 X-345.359 Y-199.393 
G03 X-17.532 Y-17.014 I25 J-43.301
G01 X1.502 Y-2.599 
G01 X2.871 Y-5.919 
M8
G40
M05
G1 X-109.805 Y139.231 
M06
G41 R=P1100 E0
M7
G01 X-22.066 Y-12.68 
G01 X-1.502 Y-2.598 
G03 X17.531 Y-17.014 I42.532 J26.287
G01 X48.001 Y-27.713 
G03 X50 Y-0.001 I25 J43.301
G01 X345.359 Y199.393 
G03 X14.531 Y73.918 I-25 J43.301
G03 X-426.139 Y246.032 I-513.956 J-398.134
G03 X-56.75 Y-49.542 I-6.75 J-49.542
G01 X0 Y-398.786 
G03 X5.968 Y-23.69 I50 J0
G01 X3.002 Y0.001 
G01 X8.175 Y-0.487 
M8
G40
M05
G1 X-177.261 Y-26.107 
M06
G41 R=P1100 E0
M7
G01 X0.116 Y-24.808 
G01 X1.499 Y-2.6 
G03 X23.5 Y6.676 I-1.499 J49.978
G01 X48.001 Y27.713 
G03 X25 Y43.301 I-25 J43.301
G01 X0 Y398.786 
G03 X-56.75 Y49.542 I-50 J0
G03 X-426.138 Y-246.031 I87.817 J-644.166
G03 X14.53 Y-73.918 I39.53 J-30.617
G01 X345.358 Y-199.393 
G03 X23.499 Y-6.676 I25 J43.301
G01 X1.501 Y2.6 
G01 X4.993 Y5.845 
M8
G40
M05
G1 X-69.356 Y-163.773 
M06
G41 R=P1100 E0
M7
G01 X24.393 Y-14.105 
G01 X3.001 Y-0.002 
G03 X5.969 Y23.69 I-44.031 J23.691
G01 X0 Y55.427 
G03 X-25 Y43.301 I-50 J0
G01 X-345.358 Y199.393 
G03 X-71.28 Y-24.376 I-25 J-43.301
G03 X0 Y-492.062 I601.773 J-246.031
G03 X71.279 Y-24.376 I46.28 J18.925
G01 X345.359 Y199.393 
G03 X17.532 Y17.013 I-25 J43.301
G01 X-1.501 Y2.6 
G01 X-3.067 Y7.086 
M8
G40
M05
G1 X266.692 Y44.316 
M06
G41 R=P1100 E0
M7
G01 X31.736 Y0 
G01 X2.6 Y1.5 
G03 X-257.991 Y-1.499 I-128.991 J-1.499
G03 X257.991 Y-1.501 I129 J0
G01 X-2.6 Y1.5 
G01 X-9.184 Y4.815 
M8
G40
M05
G1 X-178.091 Y-599.413 
M06
G41 R=P1100 E0
M7
G01 X27.273 Y0.11 
G01 X2.611 Y1.48 
G01 X0 Y397.286 
G03 X-25 Y43.301 I-50 J0
G01 X-48 Y27.713 
G03 X-50 Y0 I-25 J-43.301
G01 X-345.358 Y-199.393 
G03 X-14.53 Y-73.918 I25 J-43.301
G03 X426.132 Y-246.03 I513.956 J398.135
G03 X56.734 Y48.041 I6.757 J49.541
G01 X-2.589 Y1.52 
G01 X-7.6 Y4.364 
M8
G40
M05
G1 X529.712 Y211.913 
M06
G41 R=P1100 E0
M7
G01 X23.307 Y-18.227 
G01 X2.976 Y-0.387 
G03 X-15.425 Y72.724 I-40.426 J29.423
G01 X-345.359 Y199.393 
G03 X-50 Y0 I-25 J-43.301
G01 X-48 Y-27.713 
G03 X-25 Y-43.301 I25 J-43.301
G01 X0 Y-398.785 
G03 X56.75 Y-49.542 I50 J0
G03 X425.212 Y244.838 I-87.817 J644.166
G01 X-1.154 Y2.773 
G01 X-3.179 Y8.326 
M8
G40
M05
G1 X-29.337 Y-343.892 
M06
G41 R=P1100 E0
M7
G01 X0 Y32.715 
G01 X-8.716 Y12.429 
G01 X-2.707 Y1.297 
G02 X-936.979 Y1370.28 I-467.87 J685.564
G02 X939.447 Y-1368.59 I469.11 J-684.716
G01 X0.239 Y-2.988 
G01 X-0.268 Y-6.315 
M8
G40
(HEADS 1 PITCH 0)
G253 (ANZAHL BRENNER:1 ABSTAND:0)
G253 (Teil 33: VERSTEIFUNGSBLECH__SWD_9602-0001-P2098_001_Blatt2)
M05
G1 X146.072 Y-54.771 
M06
G41 R=P1100 E0
M7
G01 X-31.622 Y0 
G01 X-2.6 Y-1.5 
G03 X69.968 Y1.499 I34.968 J1.5
G03 X-69.968 Y1.5 I-35 J0.001
G01 X2.6 Y-1.5 
G01 X6.141 Y-4.198 
M8
G40
M05
G1 X421.227 Y-55.802 
M06
G41 R=P1100 E0
M7
G01 X-25 Y0 
G01 X-267.715 Y0 
G03 X-24.205 Y-2.974 I0 J-100
G01 X-58.717 Y-14.648 
G02 X-59.269 Y146.958 I-19.364 J77.621
G03 X39.997 Y42.833 I-49.882 J86.67
G01 X59.908 Y122.831 
G01 X310 Y0 
G03 X30 Y-30 I30 J0
G01 X0 Y-195 
G03 X-30 Y-30 I0 J-30
G01 X0 Y-40 
G01 X0 Y-5 
M8
G40
G253 (Teil 34: VERSTEIFUNGSBLECH__SWD_9602-0001-P2098_001_Blatt2)
M05
G1 X-1197.005 Y1853.908 
M06
G41 R=P1100 E0
M7
G01 X28.929 Y0 
G01 X2.6 Y1.5 
G03 X-69.968 Y-1.5 I-34.968 J-1.5
G03 X69.968 Y-1.5 I35 J0
G01 X-2.6 Y1.5 
G01 X-7.713 Y4.031 
M8
G40
M05
G1 X-424.655 Y-246.361 
M06
G41 R=P1100 E0
M7
G01 X0 Y37.33 
G01 X0 Y195 
G03 X30 Y30 I0 J30
G01 X0 Y40 
G01 X267.715 Y0 
G03 X24.204 Y2.973 I0 J100
G01 X58.717 Y14.648 
G02 X59.269 Y-146.958 I19.364 J-77.621
G03 X-39.997 Y-42.833 I49.882 J-86.671
G01 X-59.908 Y-122.83 
G01 X-310 Y0 
G03 X-30 Y30 I-30 J0
G01 X-8.694 Y0 
M8
G40
G253 (Teil 35: VERSTEIFUNGSBLECH__SWD_9602-0001-P2098_001_Blatt2)
M05
G1 X824.933 Y207.959 
M06
G41 R=P1100 E0
M7
G01 X-36.776 Y0 
G01 X-2.6 Y-1.5 
G03 X69.968 Y1.499 I34.968 J1.5
G03 X-69.968 Y1.5 I-35 J0.001
G01 X2.6 Y-1.5 
G01 X7.464 Y-5.875 
M8
G40
M05
G1 X450.772 Y-199.125 
M06
G41 R=P1100 E0
M7
G01 X-25.868 Y0 
G03 X-30 Y-30 I0 J-30
G01 X-310 Y0 
G01 X-59.908 Y122.83 
G03 X-39.997 Y42.833 I-89.879 J-43.837
G02 X59.27 Y146.958 I39.906 J69.336
G01 X58.716 Y-14.648 
G03 X24.204 Y-2.974 I24.205 J97.026
G01 X267.716 Y0 
G01 X0 Y-40 
G03 X30 Y-30 I30 J0
G01 X0 Y-195 
G01 X0 Y-7.731 
M8
G40
G253 (Teil 36: VERSTEIFUNGSBLECH__SWD_9602-0001-P2098_001_Blatt2)
M05
G1 X191.456 Y-337.212 
M06
G41 R=P1100 E0
M7
G01 X30.047 Y0 
G01 X2.6 Y1.5 
G03 X-69.968 Y-1.5 I-34.968 J-1.5
G03 X69.968 Y-1.5 I35 J0
G01 X-2.6 Y1.5 
G01 X-7.898 Y4.537 
M8
G40
M05
G1 X1.399 Y-120.181 
M06
G41 R=P1100 E0
M7
G01 X-8.368 Y34.934 
G01 X-2.017 Y2.223 
G02 X-93.105 Y97.851 I-15.484 J78.487
G01 X14.648 Y58.716 
G03 X2.974 Y24.204 I-97.026 J24.205
G01 X0 Y267.716 
G01 X40 Y0 
G03 X30 Y30 I0 J30
G01 X195 Y0 
G03 X30 Y-30 I30 J0
G01 X0 Y-310 
G01 X-122.83 Y-59.908 
G03 X-42.833 Y-39.997 I43.837 J-89.879
G02 X-50.922 Y-37.946 I-69.336 J39.906
G01 X-0.914 Y-2.859 
G01 X-2.516 Y-6.729 
M8
G40
G253 (Teil 37: Art. 10.842.194.0)
M05
G1 X247.944 Y573.851 
M06
G41 R=P1100 E0
M7
G01 X0 Y-34.1 
G01 X-15.768 Y0 
G01 X-2.902 Y0.768 
G02 X-2.328 Y-0.575 I-2.328 J4.425
G01 X-68 Y0 
G03 X-10 Y-10 I0 J-10
G01 X0 Y-17.5 
G02 X-5 Y-5 I-5 J0
G01 X-240 Y0 
G02 X-5 Y5 I0 J5
G01 X0 Y17.5 
G03 X-10 Y10 I-10 J0
G01 X-68 Y0 
G02 X-5 Y5 I0 J5
G01 X0 Y110 
G02 X5 Y5 I5 J0
G01 X53.139 Y0 
G02 X4.83 Y-3.325 I-0.137 J-5.37
G03 X3.636 Y-1.802 I3.4 J2.291
G01 X36.583 Y2.109 
G03 X19.338 Y12.32 I-1.353 J23.461
G02 X8.456 Y15.609 I402.921 J-208.17
G02 X44.794 Y26.089 I44.831 J-25.474
G01 X64.485 Y0 
G02 X45.345 Y-27.084 I0 J-51.5
G01 X7.868 Y-14.613 
G03 X19.338 Y-12.32 I20.691 J11.141
G01 X36.62 Y-2.111 
G03 X4.227 Y2.835 I0.178 J4.303
G02 X4.203 Y2.294 I4.235 J-2.761
G01 X53.139 Y0 
G02 X5 Y-5 I0 J-5
G01 X0 Y-110 
G02 X-0.559 Y-2.296 I-5 J0
G01 X0.788 Y-2.896 
G01 X1.642 Y-5.147 
M8
G40
(HEADS 1 PITCH 230)
G253 (ANZAHL BRENNER:1 ABSTAND:230)
G253 (Teil 38: Art. 10.842.168.1)
M05
G1 X757.022 Y-1127.451 
M06
G41 R=P1100 E0
M7
G01 X13.502 Y-24.815 
G01 X2.545 Y-1.591 
G01 X51.652 Y27.464 
G02 X13.524 Y-4.135 I4.695 J-8.829
G01 X42.018 Y-79.024 
G03 X13.524 Y-4.135 I8.83 J4.695
G01 X66.943 Y35.594 
G02 X12.886 Y-3.094 I4.681 J-8.887
G01 X61.735 Y-88.165 
G03 X5.66 Y-1.881 I4.118 J2.934
G01 X3.259 Y1.634 
G02 X6.656 Y-2.122 I2.241 J-4.47
G01 X40.368 Y-75.922 
G02 X-2.067 Y-6.762 I-4.415 J-2.347
G01 X-17.973 Y-9.557 
G01 X-37.504 Y-22.803 
G03 X-11.103 Y-14.681 I13.157 J-21.489
G01 X-11.386 Y-41.06 
G02 X-34.592 Y-43.101 I-67.454 J18.706
G01 X-45.071 Y-23.964 
G02 X-55.076 Y-4.576 I-32.863 J61.807
G01 X-40.406 Y13.52 
G03 X-18.38 Y-0.995 I-7.921 J-23.919
G01 X-39.876 Y-18.341 
G01 X-17.973 Y-9.557 
G02 X-6.762 Y2.067 I-2.347 J4.415
G01 X-40.375 Y75.933 
G02 X2.067 Y6.762 I4.415 J2.347
G01 X2.363 Y1.256 
G03 X2.321 Y6.206 I-2.398 J4.434
G01 X-38.571 Y100.482 
G02 X4.641 Y12.413 I9.392 J3.563
G01 X66.943 Y35.594 
G03 X4.135 Y13.524 I-4.695 J8.83
G01 X-42.018 Y79.024 
G02 X4.135 Y13.524 I8.83 J4.695
G01 X51.652 Y27.464 
G01 X0.104 Y3 
G01 X0.67 Y8.733 
M8
G40
G253 (Teil 39: Art. 10.842.168.1)
M05
G1 X86.298 Y202.111 
M06
G41 R=P1100 E0
M7
G01 X30.045 Y0 
G01 X2.6 Y1.5 
G01 X0 Y58.5 
G02 X10 Y10 I10 J0
G01 X89.5 Y0 
G03 X10 Y10 I0 J10
G01 X0 Y75.818 
G02 X8.781 Y9.925 I10.045 J-0.039
G01 X106.828 Y13.118 
G03 X4.318 Y4.115 I-0.657 J5.013
G01 X0.087 Y3.644 
G02 X4.999 Y4.88 I4.999 J-0.12
G01 X85.987 Y0 
G02 X5 Y-5 I0 J-5
G01 X0 Y-20.356 
G01 X2.527 Y-43.819 
G03 X7.75 Y-16.695 I25.15 J1.528
G01 X30.908 Y-29.33 
G02 X21.816 Y-50.777 I-48.184 J-50.777
G01 X0 Y-51.046 
G02 X-21.816 Y-50.777 I-70 J0
G01 X-30.908 Y-29.33 
G03 X-7.75 Y-16.695 I17.4 J-18.224
G01 X-2.527 Y-43.819 
G01 X0 Y-20.356 
G02 X-5 Y-5 I-5 J0
G01 X-86 Y0 
G02 X-5 Y5 I0 J5
G01 X0 Y2.676 
G03 X-4.391 Y4.963 I-5.041 J-0.036
G01 X-106.828 Y13.118 
G02 X-8.781 Y9.926 I1.263 J9.965
G01 X0 Y75.818 
G03 X-10 Y10 I-10 J0
G01 X-89.5 Y0 
G02 X-10 Y10 I0 J10
G01 X0 Y58.5 
G01 X-2.6 Y1.5 
G01 X-7.359 Y4.436 
M8
G40
G253 (Teil 40: Art. 10.842.168.1)
M05
G1 X-119.882 Y181.806 
M06
G41 R=P1100 E0
M7
G01 X11.938 Y23.733 
G01 X-0.156 Y2.998 
G01 X-52.124 Y26.558 
G02 X-4.37 Y13.45 I4.54 J8.91
G01 X40.632 Y79.745 
G03 X-4.37 Y13.45 I-8.91 J4.54
G01 X-67.554 Y34.421 
G02 X-4.857 Y12.33 I4.595 J8.932
G01 X36.811 Y101.14 
G03 X-1.706 Y5.716 I-4.765 J1.69
G01 X-3.207 Y1.732 
G02 X-2.079 Y6.669 I2.376 J4.399
G01 X39.037 Y76.615 
G02 X6.725 Y2.185 I4.455 J-2.27
G01 X18.137 Y-9.241 
G01 X40.19 Y-17.642 
G03 X18.394 Y-0.675 I10.057 J23.103
G01 X40.165 Y14.224 
G02 X55.147 Y-3.614 I23.367 J-65.985
G01 X45.483 Y-23.175 
G02 X35.338 Y-42.49 I-31.779 J-62.37
G01 X12.101 Y-40.854 
G03 X11.357 Y-14.485 I24.137 J7.23
G01 X37.896 Y-22.145 
G01 X18.137 Y-9.241 
G02 X2.185 Y-6.725 I-2.27 J-4.455
G01 X-39.043 Y-76.627 
G02 X-6.725 Y-2.185 I-4.455 J2.27
G01 X-2.385 Y1.215 
G03 X-6.415 Y-1.659 I-2.256 J-4.508
G01 X-60.187 Y-89.229 
G02 X-12.83 Y-3.318 I-8.305 J5.65
G01 X-67.554 Y34.42 
G03 X-13.45 Y-4.37 I-4.54 J-8.91
G01 X-40.632 Y-79.745 
G02 X-13.45 Y-4.37 I-8.91 J4.54
G01 X-52.124 Y26.558 
G01 X-2.517 Y-1.636 
G01 X-8.134 Y-3.618 
M8
G40
G253 (Teil 41: Art. 10.842.168.1)
M05
G1 X-244.578 Y-22.835 
M06
G41 R=P1100 E0
M7
G01 X-12.924 Y25.767 
G01 X-2.517 Y1.636 
G01 X-52.124 Y-26.558 
G02 X-13.45 Y4.37 I-4.54 J8.91
G01 X-40.632 Y79.745 
G03 X-13.45 Y4.37 I-8.91 J-4.54
G01 X-67.554 Y-34.421 
G02 X-12.83 Y3.318 I-4.525 J8.968
G01 X-60.187 Y89.229 
G03 X-5.627 Y1.979 I-4.168 J-2.862
G01 X-3.287 Y-1.577 
G02 X-6.618 Y2.238 I-2.163 J4.508
G01 X-39.037 Y76.615 
G02 X2.185 Y6.725 I4.455 J2.27
G01 X18.137 Y9.241 
G01 X37.896 Y22.145 
G03 X11.357 Y14.484 I-12.779 J21.715
G01 X12.101 Y40.855 
G02 X35.338 Y42.49 I67.118 J-19.88
G01 X45.483 Y23.175 
G02 X55.147 Y3.614 I31.779 J-62.37
G01 X40.165 Y-14.224 
G03 X18.394 Y0.674 I8.338 J23.777
G01 X40.19 Y17.642 
G01 X18.137 Y9.241 
G02 X6.725 Y-2.185 I2.27 J-4.455
G01 X39.043 Y-76.627 
G02 X-2.185 Y-6.725 I-4.455 J-2.27
G01 X-2.385 Y-1.215 
G03 X-2.429 Y-6.165 I2.321 J-4.475
G01 X36.811 Y-101.14 
G02 X-4.857 Y-12.33 I-9.452 J-3.398
G01 X-67.554 Y-34.421 
G03 X-4.37 Y-13.45 I4.54 J-8.91
G01 X40.632 Y-79.745 
G02 X-4.37 Y-13.45 I-8.91 J-4.54
G01 X-52.124 Y-26.558 
G01 X-0.156 Y-2.998 
G01 X-0.887 Y-8.397 
M8
G40
G253 (Teil 42: Art. 10.842.168.1)
M05
G1 X-82.594 Y-200.183 
M06
G41 R=P1100 E0
M7
G01 X-31.66 Y0 
G01 X-2.6 Y-1.5 
G01 X0 Y-58.5 
G02 X-10 Y-10 I-10 J0
G01 X-89.5 Y0 
G03 X-10 Y-10 I0 J-10
G01 X0 Y-75.818 
G02 X-8.781 Y-9.925 I-10.045 J0.039
G01 X-106.828 Y-13.118 
G03 X-4.318 Y-4.115 I0.657 J-5.013
G01 X-0.087 Y-3.644 
G02 X-4.999 Y-4.88 I-4.999 J0.12
G01 X-85.987 Y0 
G02 X-5 Y5 I0 J5
G01 X0 Y20.356 
G01 X-2.527 Y43.819 
G03 X-7.75 Y16.695 I-25.15 J-1.528
G01 X-30.908 Y29.33 
G02 X-21.816 Y50.778 I48.184 J50.777
G01 X0 Y51.045 
G02 X21.816 Y50.777 I70 J0
G01 X30.907 Y29.329 
G03 X7.75 Y16.695 I-17.4 J18.224
G01 X2.527 Y43.819 
G01 X0 Y20.356 
G02 X5 Y5 I5 J0
G01 X86 Y0 
G02 X5 Y-5 I0 J-5
G01 X0 Y-2.676 
G03 X4.391 Y-4.963 I5.041 J0.036
G01 X106.828 Y-13.118 
G02 X8.781 Y-9.925 I-1.263 J-9.965
G01 X0 Y-75.818 
G03 X10 Y-10 I10 J0
G01 X89.5 Y0 
G02 X10 Y-10 I0 J-10
G01 X0 Y-58.5 
G01 X2.6 Y-1.5 
G01 X6.942 Y-5.208 
M8
G40
G253 (Teil 43: Art. 10.842.168.1)
M05
G1 X120.231 Y-179.447 
M06
G41 R=P1100 E0
M7
G01 X-11.412 Y-23.707 
G01 X0.156 Y-2.998 
G01 X52.124 Y-26.558 
G02 X4.37 Y-13.45 I-4.54 J-8.91
G01 X-40.632 Y-79.745 
G03 X4.37 Y-13.45 I8.91 J-4.54
G01 X67.554 Y-34.421 
G02 X4.857 Y-12.33 I-4.595 J-8.932
G01 X-36.811 Y-101.14 
G03 X1.706 Y-5.716 I4.765 J-1.69
G01 X3.207 Y-1.732 
G02 X2.079 Y-6.669 I-2.376 J-4.399
G01 X-39.037 Y-76.615 
G02 X-6.725 Y-2.185 I-4.455 J2.27
G01 X-18.137 Y9.241 
G01 X-40.19 Y17.642 
G03 X-18.394 Y0.674 I-10.056 J-23.103
G01 X-40.165 Y-14.224 
G02 X-55.147 Y3.615 I-23.367 J65.985
G01 X-45.482 Y23.174 
G02 X-35.338 Y42.491 I31.78 J62.37
G01 X-12.101 Y40.853 
G03 X-11.357 Y14.485 I-24.137 J-7.231
G01 X-37.896 Y22.145 
G01 X-18.137 Y9.241 
G02 X-2.185 Y6.725 I2.27 J4.455
G01 X39.043 Y76.626 
G02 X6.725 Y2.185 I4.455 J-2.27
G01 X2.385 Y-1.215 
G03 X6.415 Y1.659 I2.256 J4.508
G01 X60.187 Y89.229 
G02 X12.83 Y3.318 I8.305 J-5.65
G01 X67.554 Y-34.421 
G03 X13.45 Y4.37 I4.54 J8.91
G01 X40.632 Y79.745 
G02 X13.45 Y4.37 I8.91 J-4.54
G01 X52.124 Y-26.558 
G01 X2.517 Y1.636 
G01 X8.459 Y2.64 
M8
G40
G253 (Teil 44: Neubacher Scheibe s40 +2mm bei Stege)
M05
G1 X315 Y244.013 
M06
G41 R=P1100 E0
M7
G01 X-22.015 Y12.682 
G01 X-3.002 Y0.001 
G03 X-5.968 Y-23.69 I44.032 J-23.69
G01 X0 Y-55.425 
G03 X25 Y-43.301 I50 J0
G01 X345.358 Y-199.393 
G03 X71.28 Y24.375 I25 J43.301
G03 X0.003 Y492.056 I-601.772 J246.032
G03 X-71.282 Y24.383 I-46.283 J-18.919
G01 X-345.359 Y-199.393 
G03 X-17.532 Y-17.014 I25 J-43.301
G01 X1.502 Y-2.599 
G01 X2.871 Y-5.919 
M8
G40
M05
G1 X-109.805 Y139.231 
M06
G41 R=P1100 E0
M7
G01 X-22.066 Y-12.68 
G01 X-1.502 Y-2.598 
G03 X17.531 Y-17.014 I42.532 J26.287
G01 X48.001 Y-27.713 
G03 X50 Y-0.001 I25 J43.301
G01 X345.359 Y199.393 
G03 X14.531 Y73.918 I-25 J43.301
G03 X-426.139 Y246.032 I-513.956 J-398.134
G03 X-56.75 Y-49.542 I-6.75 J-49.542
G01 X0 Y-398.786 
G03 X5.968 Y-23.69 I50 J0
G01 X3.002 Y0.001 
G01 X8.175 Y-0.487 
M8
G40
M05
G1 X-177.26 Y-26.107 
M06
G41 R=P1100 E0
M7
G01 X0.115 Y-24.808 
G01 X1.499 Y-2.6 
G03 X23.5 Y6.676 I-1.499 J49.978
G01 X48.001 Y27.713 
G03 X25 Y43.301 I-25 J43.301
G01 X0 Y398.786 
G03 X-56.75 Y49.542 I-50 J0
G03 X-426.138 Y-246.031 I87.817 J-644.166
G03 X14.53 Y-73.918 I39.53 J-30.617
G01 X345.358 Y-199.393 
G03 X23.499 Y-6.676 I25 J43.301
G01 X1.501 Y2.6 
G01 X4.993 Y5.845 
M8
G40
M05
G1 X-69.356 Y-163.773 
M06
G41 R=P1100 E0
M7
G01 X24.393 Y-14.105 
G01 X3.001 Y-0.002 
G03 X5.969 Y23.69 I-44.031 J23.691
G01 X0 Y55.427 
G03 X-25 Y43.301 I-50 J0
G01 X-345.358 Y199.393 
G03 X-71.28 Y-24.376 I-25 J-43.301
G03 X0 Y-492.062 I601.773 J-246.031
G03 X71.279 Y-24.376 I46.28 J18.925
G01 X345.359 Y199.393 
G03 X17.532 Y17.013 I-25 J43.301
G01 X-1.501 Y2.6 
G01 X-3.067 Y7.086 
M8
G40
M05
G1 X266.692 Y44.316 
M06
G41 R=P1100 E0
M7
G01 X31.736 Y0 
G01 X2.6 Y1.5 
G03 X-257.991 Y-1.499 I-128.991 J-1.499
G03 X257.991 Y-1.501 I129 J0
G01 X-2.6 Y1.5 
G01 X-9.184 Y4.815 
M8
G40
M05
G1 X-178.092 Y-599.413 
M06
G41 R=P1100 E0
M7
G01 X27.273 Y0.11 
G01 X2.611 Y1.48 
G01 X0 Y397.286 
G03 X-25 Y43.301 I-50 J0
G01 X-48 Y27.713 
G03 X-50 Y0 I-25 J-43.301
G01 X-345.358 Y-199.393 
G03 X-14.53 Y-73.918 I25 J-43.301
G03 X426.132 Y-246.03 I513.956 J398.135
G03 X56.734 Y48.041 I6.757 J49.541
G01 X-2.589 Y1.52 
G01 X-7.6 Y4.364 
M8
G40
M05
G1 X529.711 Y211.913 
M06
G41 R=P1100 E0
M7
G01 X23.308 Y-18.227 
G01 X2.976 Y-0.387 
G03 X-15.425 Y72.724 I-40.426 J29.423
G01 X-345.359 Y199.393 
G03 X-50 Y0 I-25 J-43.301
G01 X-48 Y-27.713 
G03 X-25 Y-43.301 I25 J-43.301
G01 X0 Y-398.785 
G03 X56.75 Y-49.542 I50 J0
G03 X425.212 Y244.838 I-87.817 J644.166
G01 X-1.154 Y2.773 
G01 X-3.179 Y8.326 
M8
G40
M05
G1 X-30.652 Y-344.591 
M06
G41 R=P1100 E0
M7
G01 X0 Y30.351 
G01 X-9.5 Y14.058 
G01 X-2.703 Y1.305 
G02 X-932.789 Y1373.136 I-465.773 J686.99
G02 X935.262 Y-1371.453 I467.016 J-686.146
G01 X0.23 Y-2.988 
G01 X-0.212 Y-6.571 
M8
G40
(HEADS 1 PITCH 0)
G253 (ANZAHL BRENNER:1 ABSTAND:0)
G253 (Teil 45: VERSTEIFUNGSBLECH__SWD_9602-0001-P2098_001_Blatt2)
M05
G1 X148.912 Y-53.081 
M06
G41 R=P1100 E0
M7
G01 X-32.55 Y0 
G01 X-2.6 Y-1.5 
G03 X69.968 Y1.499 I34.968 J1.5
G03 X-69.968 Y1.5 I-35 J0.001
G01 X2.6 Y-1.5 
G01 X5.836 Y-4.686 
M8
G40
M05
G1 X421.532 Y-55.314 
M06
G41 R=P1100 E0
M7
G01 X-25 Y0 
G01 X-267.715 Y0 
G03 X-24.205 Y-2.974 I0 J-100
G01 X-58.717 Y-14.648 
G02 X-59.269 Y146.958 I-19.364 J77.621
G03 X39.997 Y42.833 I-49.882 J86.67
G01 X59.908 Y122.831 
G01 X310 Y0 
G03 X30 Y-30 I30 J0
G01 X0 Y-195 
G03 X-30 Y-30 I0 J-30
G01 X0 Y-40 
G01 X0 Y-5 
M8
G40
G253 (Teil 46: VERSTEIFUNGSBLECH__SWD_9602-0001-P2098_001_Blatt2)
M05
G1 X-1189.511 Y1854.426 
M06
G41 R=P1100 E0
M7
G01 X26.458 Y0 
G01 X2.6 Y1.5 
G03 X-69.968 Y-1.5 I-34.968 J-1.5
G03 X69.968 Y-1.5 I35 J0
G01 X-2.6 Y1.5 
G01 X-6.61 Y3.497 
M8
G40
M05
G1 X-425.758 Y-242.181 
M06
G41 R=P1100 E0
M7
G01 X0 Y33.684 
G01 X0 Y195 
G03 X30 Y30 I0 J30
G01 X0 Y40 
G01 X267.715 Y0 
G03 X24.204 Y2.973 I0 J100
G01 X58.717 Y14.648 
G02 X59.269 Y-146.958 I19.364 J-77.621
G03 X-39.997 Y-42.833 I49.882 J-86.671
G01 X-59.908 Y-122.83 
G01 X-310 Y0 
G03 X-30 Y30 I-30 J0
G01 X-7.847 Y0 
M8
G40
G253 (Teil 47: VERSTEIFUNGSBLECH__SWD_9602-0001-P2098_001_Blatt2)
M05
G1 X819.134 Y207.591 
M06
G41 R=P1100 E0
M7
G01 X-34.219 Y0 
G01 X-2.6 Y-1.5 
G03 X69.968 Y1.499 I34.968 J1.5
G03 X-69.968 Y1.5 I-35 J0.001
G01 X2.6 Y-1.5 
G01 X5.63 Y-4.303 
M8
G40
M05
G1 X452.606 Y-200.696 
M06
G41 R=P1100 E0
M7
G01 X-25.868 Y0 
G03 X-30 Y-30 I0 J-30
G01 X-310 Y0 
G01 X-59.908 Y122.83 
G03 X-39.997 Y42.833 I-89.879 J-43.837
G02 X59.27 Y146.958 I39.906 J69.336
G01 X58.716 Y-14.648 
G03 X24.204 Y-2.974 I24.205 J97.026
G01 X267.716 Y0 
G01 X0 Y-40 
G03 X30 Y-30 I30 J0
G01 X0 Y-195 
G01 X0 Y-7.731 
M8
G40
G253 (Teil 48: VERSTEIFUNGSBLECH__SWD_9602-0001-P2098_001_Blatt2)
M05
G1 X189.353 Y-335.712 
M06
G41 R=P1100 E0
M7
G01 X30.048 Y0 
G01 X2.6 Y1.5 
G03 X-69.968 Y-1.5 I-34.968 J-1.5
G03 X69.968 Y-1.5 I35 J0
G01 X-2.6 Y1.5 
G01 X-7.898 Y4.537 
M8
G40
M05
G1 X-7.689 Y-123.683 
M06
G41 R=P1100 E0
M7
G01 X-5.827 Y37.289 
G01 X-1.832 Y2.378 
G02 X-86.743 Y98.842 I-9.122 J79.478
G01 X14.648 Y58.716 
G03 X2.974 Y24.204 I-97.026 J24.205
G01 X0 Y267.716 
G01 X40 Y0 
G03 X30 Y30 I0 J30
G01 X195 Y0 
G03 X30 Y-30 I30 J0
G01 X0 Y-310 
G01 X-122.83 Y-59.908 
G03 X-42.833 Y-39.997 I43.837 J-89.879
G02 X-57.243 Y-39.175 I-69.336 J39.906
G01 X-1.141 Y-2.776 
G01 X-5.5 Y-10.573 
M8
G40
G253 (Teil 49: Art. 10.842.194.0)
M05
G1 X259.656 Y578.952 
M06
G41 R=P1100 E0
M7
G01 X0 Y-34.1 
G01 X-15.768 Y0 
G01 X-2.902 Y0.768 
G02 X-2.328 Y-0.575 I-2.328 J4.425
G01 X-68 Y0 
G03 X-10 Y-10 I0 J-10
G01 X0 Y-17.5 
G02 X-5 Y-5 I-5 J0
G01 X-240 Y0 
G02 X-5 Y5 I0 J5
G01 X0 Y17.5 
G03 X-10 Y10 I-10 J0
G01 X-68 Y0 
G02 X-5 Y5 I0 J5
G01 X0 Y110 
G02 X5 Y5 I5 J0
G01 X53.139 Y0 
G02 X4.83 Y-3.325 I-0.137 J-5.37
G03 X3.636 Y-1.802 I3.4 J2.291
G01 X36.583 Y2.109 
G03 X19.338 Y12.32 I-1.353 J23.461
G02 X8.456 Y15.609 I402.921 J-208.17
G02 X44.794 Y26.089 I44.831 J-25.474
G01 X64.485 Y0 
G02 X45.345 Y-27.084 I0 J-51.5
G01 X7.868 Y-14.613 
G03 X19.338 Y-12.32 I20.691 J11.141
G01 X36.62 Y-2.111 
G03 X4.227 Y2.835 I0.178 J4.303
G02 X4.203 Y2.294 I4.235 J-2.761
G01 X53.139 Y0 
G02 X5 Y-5 I0 J-5
G01 X0 Y-110 
G02 X-0.559 Y-2.296 I-5 J0
G01 X0.788 Y-2.896 
G01 X1.642 Y-5.147 
M8
G40
(HEADS 1 PITCH 230)
G253 (ANZAHL BRENNER:1 ABSTAND:230)
G253 (Teil 50: Art. 10.842.168.1)
M05
G1 X753.129 Y-1129.304 
M06
G41 R=P1100 E0
M7
G01 X13.502 Y-24.816 
G01 X2.545 Y-1.591 
G01 X51.652 Y27.464 
G02 X13.524 Y-4.135 I4.695 J-8.829
G01 X42.018 Y-79.024 
G03 X13.524 Y-4.135 I8.83 J4.695
G01 X66.943 Y35.594 
G02 X12.886 Y-3.094 I4.681 J-8.887
G01 X61.735 Y-88.165 
G03 X5.66 Y-1.881 I4.118 J2.934
G01 X3.259 Y1.634 
G02 X6.656 Y-2.122 I2.241 J-4.47
G01 X40.368 Y-75.922 
G02 X-2.067 Y-6.762 I-4.415 J-2.347
G01 X-17.973 Y-9.557 
G01 X-37.504 Y-22.803 
G03 X-11.103 Y-14.681 I13.157 J-21.489
G01 X-11.386 Y-41.06 
G02 X-34.592 Y-43.101 I-67.454 J18.706
G01 X-45.071 Y-23.964 
G02 X-55.076 Y-4.576 I-32.863 J61.807
G01 X-40.406 Y13.52 
G03 X-18.38 Y-0.995 I-7.921 J-23.919
G01 X-39.876 Y-18.341 
G01 X-17.973 Y-9.557 
G02 X-6.762 Y2.067 I-2.347 J4.415
G01 X-40.375 Y75.933 
G02 X2.067 Y6.762 I4.415 J2.347
G01 X2.363 Y1.256 
G03 X2.321 Y6.206 I-2.398 J4.434
G01 X-38.571 Y100.482 
G02 X4.641 Y12.413 I9.392 J3.563
G01 X66.943 Y35.594 
G03 X4.135 Y13.524 I-4.695 J8.83
G01 X-42.018 Y79.024 
G02 X4.135 Y13.524 I8.83 J4.695
G01 X51.652 Y27.464 
G01 X0.104 Y3 
G01 X0.67 Y8.733 
M8
G40
G253 (Teil 51: Art. 10.842.168.1)
M05
G1 X88.277 Y201.707 
M06
G41 R=P1100 E0
M7
G01 X30.045 Y0 
G01 X2.6 Y1.5 
G01 X0 Y58.5 
G02 X10 Y10 I10 J0
G01 X89.5 Y0 
G03 X10 Y10 I0 J10
G01 X0 Y75.818 
G02 X8.781 Y9.925 I10.045 J-0.039
G01 X106.828 Y13.118 
G03 X4.318 Y4.115 I-0.657 J5.013
G01 X0.087 Y3.644 
G02 X4.999 Y4.88 I4.999 J-0.12
G01 X85.987 Y0 
G02 X5 Y-5 I0 J-5
G01 X0 Y-20.356 
G01 X2.527 Y-43.819 
G03 X7.75 Y-16.695 I25.15 J1.528
G01 X30.908 Y-29.33 
G02 X21.816 Y-50.777 I-48.184 J-50.777
G01 X0 Y-51.046 
G02 X-21.816 Y-50.777 I-70 J0
G01 X-30.908 Y-29.33 
G03 X-7.75 Y-16.695 I17.4 J-18.224
G01 X-2.527 Y-43.819 
G01 X0 Y-20.356 
G02 X-5 Y-5 I-5 J0
G01 X-86 Y0 
G02 X-5 Y5 I0 J5
G01 X0 Y2.676 
G03 X-4.391 Y4.963 I-5.041 J-0.036
G01 X-106.828 Y13.118 
G02 X-8.781 Y9.926 I1.263 J9.965
G01 X0 Y75.818 
G03 X-10 Y10 I-10 J0
G01 X-89.5 Y0 
G02 X-10 Y10 I0 J10
G01 X0 Y58.5 
G01 X-2.6 Y1.5 
G01 X-7.359 Y4.436 
M8
G40
G253 (Teil 52: Art. 10.842.168.1)
M05
G1 X-120.551 Y181.96 
M06
G41 R=P1100 E0
M7
G01 X11.938 Y23.733 
G01 X-0.156 Y2.998 
G01 X-52.124 Y26.558 
G02 X-4.37 Y13.45 I4.54 J8.91
G01 X40.632 Y79.745 
G03 X-4.37 Y13.45 I-8.91 J4.54
G01 X-67.554 Y34.421 
G02 X-4.857 Y12.33 I4.595 J8.932
G01 X36.811 Y101.14 
G03 X-1.706 Y5.716 I-4.765 J1.69
G01 X-3.207 Y1.732 
G02 X-2.079 Y6.669 I2.376 J4.399
G01 X39.037 Y76.615 
G02 X6.725 Y2.185 I4.455 J-2.27
G01 X18.137 Y-9.241 
G01 X40.19 Y-17.642 
G03 X18.394 Y-0.675 I10.057 J23.103
G01 X40.165 Y14.224 
G02 X55.147 Y-3.614 I23.367 J-65.985
G01 X45.483 Y-23.175 
G02 X35.338 Y-42.49 I-31.779 J-62.37
G01 X12.101 Y-40.854 
G03 X11.357 Y-14.485 I24.137 J7.23
G01 X37.896 Y-22.145 
G01 X18.137 Y-9.241 
G02 X2.185 Y-6.725 I-2.27 J-4.455
G01 X-39.043 Y-76.627 
G02 X-6.725 Y-2.185 I-4.455 J2.27
G01 X-2.385 Y1.215 
G03 X-6.415 Y-1.659 I-2.256 J-4.508
G01 X-60.187 Y-89.229 
G02 X-12.83 Y-3.318 I-8.305 J5.65
G01 X-67.554 Y34.42 
G03 X-13.45 Y-4.37 I-4.54 J-8.91
G01 X-40.632 Y-79.745 
G02 X-13.45 Y-4.37 I-8.91 J4.54
G01 X-52.124 Y26.558 
G01 X-2.517 Y-1.636 
G01 X-8.134 Y-3.618 
M8
G40
G253 (Teil 53: Art. 10.842.168.1)
M05
G1 X-240.87 Y-20.793 
M06
G41 R=P1100 E0
M7
G01 X-13.486 Y25.748 
G01 X-2.545 Y1.591 
G01 X-51.652 Y-27.464 
G02 X-13.524 Y4.135 I-4.695 J8.83
G01 X-42.018 Y79.024 
G03 X-13.524 Y4.135 I-8.829 J-4.695
G01 X-66.943 Y-35.594 
G02 X-12.886 Y3.094 I-4.681 J8.887
G01 X-61.735 Y88.165 
G03 X-5.66 Y1.881 I-4.118 J-2.934
G01 X-3.259 Y-1.634 
G02 X-6.656 Y2.122 I-2.241 J4.47
G01 X-40.368 Y75.922 
G02 X2.067 Y6.762 I4.415 J2.347
G01 X17.973 Y9.557 
G01 X37.504 Y22.803 
G03 X11.103 Y14.68 I-13.156 J21.489
G01 X11.386 Y41.06 
G02 X34.591 Y43.1 I67.454 J-18.706
G01 X45.071 Y23.965 
G02 X55.075 Y4.576 I32.863 J-61.806
G01 X40.407 Y-13.52 
G03 X18.379 Y0.995 I7.922 J23.919
G01 X39.876 Y18.341 
G01 X17.973 Y9.557 
G02 X6.762 Y-2.067 I2.347 J-4.415
G01 X40.375 Y-75.933 
G02 X-2.067 Y-6.762 I-4.415 J-2.347
G01 X-2.363 Y-1.256 
G03 X-2.321 Y-6.207 I2.398 J-4.434
G01 X38.571 Y-100.482 
G02 X-4.641 Y-12.413 I-9.391 J-3.563
G01 X-66.943 Y-35.594 
G03 X-4.135 Y-13.524 I4.695 J-8.829
G01 X42.018 Y-79.024 
G02 X-4.135 Y-13.524 I-8.829 J-4.695
G01 X-51.652 Y-27.464 
G01 X-0.104 Y-3 
G01 X-0.795 Y-7.19 
M8
G40
G253 (Teil 54: Art. 10.842.168.1)
M05
G1 X-85.912 Y-203.491 
M06
G41 R=P1100 E0
M7
G01 X-31.661 Y0 
G01 X-2.6 Y-1.5 
G01 X0 Y-58.5 
G02 X-10 Y-10 I-10 J0
G01 X-89.5 Y0 
G03 X-10 Y-10 I0 J-10
G01 X0 Y-75.818 
G02 X-8.781 Y-9.925 I-10.045 J0.039
G01 X-106.828 Y-13.118 
G03 X-4.318 Y-4.115 I0.657 J-5.013
G01 X-0.087 Y-3.644 
G02 X-4.999 Y-4.88 I-4.999 J0.12
G01 X-85.987 Y0 
G02 X-5 Y5 I0 J5
G01 X0 Y20.356 
G01 X-2.527 Y43.819 
G03 X-7.75 Y16.695 I-25.15 J-1.528
G01 X-30.908 Y29.33 
G02 X-21.816 Y50.778 I48.184 J50.777
G01 X0 Y51.045 
G02 X21.816 Y50.777 I70 J0
G01 X30.907 Y29.329 
G03 X7.75 Y16.695 I-17.4 J18.224
G01 X2.527 Y43.819 
G01 X0 Y20.356 
G02 X5 Y5 I5 J0
G01 X86 Y0 
G02 X5 Y-5 I0 J-5
G01 X0 Y-2.676 
G03 X4.391 Y-4.963 I5.041 J0.036
G01 X106.828 Y-13.118 
G02 X8.781 Y-9.925 I-1.263 J-9.965
G01 X0 Y-75.818 
G03 X10 Y-10 I10 J0
G01 X89.5 Y0 
G02 X10 Y-10 I0 J-10
G01 X0 Y-58.5 
G01 X2.6 Y-1.5 
G01 X6.942 Y-5.208 
M8
G40
G253 (Teil 55: Art. 10.842.168.1)
M05
G1 X120.325 Y-181.734 
M06
G41 R=P1100 E0
M7
G01 X-11.412 Y-23.707 
G01 X0.156 Y-2.998 
G01 X52.124 Y-26.558 
G02 X4.37 Y-13.45 I-4.54 J-8.91
G01 X-40.632 Y-79.745 
G03 X4.37 Y-13.45 I8.91 J-4.54
G01 X67.554 Y-34.421 
G02 X4.857 Y-12.33 I-4.595 J-8.932
G01 X-36.811 Y-101.14 
G03 X1.706 Y-5.716 I4.765 J-1.69
G01 X3.207 Y-1.732 
G02 X2.079 Y-6.669 I-2.376 J-4.399
G01 X-39.037 Y-76.615 
G02 X-6.725 Y-2.185 I-4.455 J2.27
G01 X-18.137 Y9.241 
G01 X-40.19 Y17.642 
G03 X-18.394 Y0.674 I-10.056 J-23.103
G01 X-40.165 Y-14.224 
G02 X-55.147 Y3.615 I-23.367 J65.985
G01 X-45.482 Y23.174 
G02 X-35.338 Y42.491 I31.78 J62.37
G01 X-12.101 Y40.853 
G03 X-11.357 Y14.485 I-24.137 J-7.231
G01 X-37.896 Y22.145 
G01 X-18.137 Y9.241 
G02 X-2.185 Y6.725 I2.27 J4.455
G01 X39.043 Y76.626 
G02 X6.725 Y2.185 I4.455 J-2.27
G01 X2.385 Y-1.215 
G03 X6.415 Y1.659 I2.256 J4.508
G01 X60.187 Y89.229 
G02 X12.83 Y3.318 I8.305 J-5.65
G01 X67.554 Y-34.421 
G03 X13.45 Y4.37 I4.54 J8.91
G01 X40.632 Y79.745 
G02 X13.45 Y4.37 I8.91 J-4.54
G01 X52.124 Y-26.558 
G01 X2.517 Y1.636 
G01 X8.459 Y2.64 
M8
G40
G253 (Teil 56: Neubacher Scheibe s40 +2mm bei Stege)
M05
G1 X314.995 Y246.72 
M06
G41 R=P1100 E0
M7
G01 X-22.015 Y12.682 
G01 X-3.002 Y0.001 
G03 X-5.968 Y-23.69 I44.032 J-23.69
G01 X0 Y-55.425 
G03 X25 Y-43.301 I50 J0
G01 X345.358 Y-199.393 
G03 X71.28 Y24.375 I25 J43.301
G03 X0.003 Y492.056 I-601.772 J246.032
G03 X-71.282 Y24.383 I-46.283 J-18.919
G01 X-345.359 Y-199.393 
G03 X-17.532 Y-17.014 I25 J-43.301
G01 X1.502 Y-2.599 
G01 X2.871 Y-5.919 
M8
G40
M05
G1 X-109.805 Y139.231 
M06
G41 R=P1100 E0
M7
G01 X-22.066 Y-12.68 
G01 X-1.502 Y-2.598 
G03 X17.531 Y-17.014 I42.532 J26.287
G01 X48.001 Y-27.713 
G03 X50 Y-0.001 I25 J43.301
G01 X345.359 Y199.393 
G03 X14.531 Y73.918 I-25 J43.301
G03 X-426.139 Y246.032 I-513.956 J-398.134
G03 X-56.75 Y-49.542 I-6.75 J-49.542
G01 X0 Y-398.786 
G03 X5.968 Y-23.69 I50 J0
G01 X3.002 Y0.001 
G01 X8.175 Y-0.487 
M8
G40
M05
G1 X-177.261 Y-26.107 
M06
G41 R=P1100 E0
M7
G01 X0.115 Y-24.808 
G01 X1.499 Y-2.6 
G03 X23.5 Y6.676 I-1.499 J49.978
G01 X48.001 Y27.713 
G03 X25 Y43.301 I-25 J43.301
G01 X0 Y398.786 
G03 X-56.75 Y49.542 I-50 J0
G03 X-426.138 Y-246.031 I87.817 J-644.166
G03 X14.53 Y-73.918 I39.53 J-30.617
G01 X345.358 Y-199.393 
G03 X23.499 Y-6.676 I25 J43.301
G01 X1.501 Y2.6 
G01 X4.993 Y5.845 
M8
G40
M05
G1 X-69.356 Y-163.773 
M06
G41 R=P1100 E0
M7
G01 X24.394 Y-14.105 
G01 X3.001 Y-0.002 
G03 X5.969 Y23.69 I-44.031 J23.691
G01 X0 Y55.427 
G03 X-25 Y43.301 I-50 J0
G01 X-345.358 Y199.393 
G03 X-71.28 Y-24.376 I-25 J-43.301
G03 X0 Y-492.062 I601.773 J-246.031
G03 X71.279 Y-24.376 I46.28 J18.925
G01 X345.359 Y199.393 
G03 X17.532 Y17.013 I-25 J43.301
G01 X-1.501 Y2.6 
G01 X-3.067 Y7.086 
M8
G40
M05
G1 X266.692 Y44.316 
M06
G41 R=P1100 E0
M7
G01 X31.736 Y0 
G01 X2.6 Y1.5 
G03 X-257.991 Y-1.499 I-128.991 J-1.499
G03 X257.991 Y-1.501 I129 J0
G01 X-2.6 Y1.5 
G01 X-9.184 Y4.815 
M8
G40
M05
G1 X-178.092 Y-599.413 
M06
G41 R=P1100 E0
M7
G01 X27.273 Y0.11 
G01 X2.611 Y1.48 
G01 X0 Y397.286 
G03 X-25 Y43.301 I-50 J0
G01 X-48 Y27.713 
G03 X-50 Y0 I-25 J-43.301
G01 X-345.358 Y-199.393 
G03 X-14.53 Y-73.918 I25 J-43.301
G03 X426.132 Y-246.03 I513.956 J398.135
G03 X56.734 Y48.041 I6.757 J49.541
G01 X-2.589 Y1.52 
G01 X-7.6 Y4.364 
M8
G40
M05
G1 X529.711 Y211.913 
M06
G41 R=P1100 E0
M7
G01 X23.308 Y-18.227 
G01 X2.976 Y-0.387 
G03 X-15.425 Y72.724 I-40.426 J29.423
G01 X-345.359 Y199.393 
G03 X-50 Y0 I-25 J-43.301
G01 X-48 Y-27.713 
G03 X-25 Y-43.301 I25 J-43.301
G01 X0 Y-398.785 
G03 X56.75 Y-49.542 I50 J0
G03 X425.212 Y244.838 I-87.817 J644.166
G01 X-1.154 Y2.773 
G01 X-3.179 Y8.326 
M8
G40
M05
G1 X-29.061 Y-344.705 
M06
G41 R=P1100 E0
M7
G01 X0 Y33.924 
G01 X-8.029 Y12.693 
G01 X-2.709 Y1.293 
G02 X-938.898 Y1368.966 I-468.83 J684.908
G02 X941.363 Y-1367.272 I470.069 J-684.058
G01 X0.243 Y-2.987 
G01 X-0.378 Y-6.101 
M8
G40
(HEADS 1 PITCH 0)
G253 (ANZAHL BRENNER:1 ABSTAND:0)
G253 (Teil 57: VERSTEIFUNGSBLECH__SWD_9602-0001-P2098_001_Blatt2)
M05
G1 X146.803 Y-55.645 
M06
G41 R=P1100 E0
M7
G01 X-33.242 Y0 
G01 X-2.6 Y-1.5 
G03 X69.968 Y1.499 I34.968 J1.5
G03 X-69.968 Y1.5 I-35 J0.001
G01 X2.6 Y-1.5 
G01 X6.695 Y-5.209 
M8
G40
M05
G1 X420.673 Y-54.791 
M06
G41 R=P1100 E0
M7
G01 X-25 Y0 
G01 X-267.715 Y0 
G03 X-24.205 Y-2.974 I0 J-100
G01 X-58.717 Y-14.648 
G02 X-59.269 Y146.958 I-19.364 J77.621
G03 X39.997 Y42.833 I-49.882 J86.67
G01 X59.908 Y122.831 
G01 X310 Y0 
G03 X30 Y-30 I30 J0
G01 X0 Y-195 
G03 X-30 Y-30 I0 J-30
G01 X0 Y-40 
G01 X0 Y-5 
M8
G40
G253 (Teil 58: VERSTEIFUNGSBLECH__SWD_9602-0001-P2098_001_Blatt2)
M05
G1 X-1188.938 Y1855.393 
M06
G41 R=P1100 E0
M7
G01 X26.458 Y0 
G01 X2.6 Y1.5 
G03 X-69.968 Y-1.5 I-34.968 J-1.5
G03 X69.968 Y-1.5 I35 J0
G01 X-2.6 Y1.5 
G01 X-6.61 Y3.497 
M8
G40
M05
G1 X-425.758 Y-246.407 
M06
G41 R=P1100 E0
M7
G01 X0 Y37.909 
G01 X0 Y195 
G03 X30 Y30 I0 J30
G01 X0 Y40 
G01 X267.715 Y0 
G03 X24.204 Y2.973 I0 J100
G01 X58.717 Y14.648 
G02 X59.269 Y-146.958 I19.364 J-77.621
G03 X-39.997 Y-42.833 I49.882 J-86.671
G01 X-59.908 Y-122.83 
G01 X-310 Y0 
G03 X-30 Y30 I-30 J0
G01 X-8.317 Y0 
M8
G40
G253 (Teil 59: VERSTEIFUNGSBLECH__SWD_9602-0001-P2098_001_Blatt2)
M05
G1 X809.917 Y208.33 
M06
G41 R=P1100 E0
M7
G01 X-33.603 Y0 
G01 X-2.6 Y-1.5 
G03 X69.968 Y1.499 I34.968 J1.5
G03 X-69.968 Y1.5 I-35 J0.001
G01 X2.6 Y-1.5 
G01 X6.353 Y-5.125 
M8
G40
M05
G1 X451.883 Y-199.875 
M06
G41 R=P1100 E0
M7
G01 X-25.868 Y0 
G03 X-30 Y-30 I0 J-30
G01 X-310 Y0 
G01 X-59.908 Y122.83 
G03 X-39.997 Y42.833 I-89.879 J-43.837
G02 X59.27 Y146.958 I39.906 J69.336
G01 X58.716 Y-14.648 
G03 X24.204 Y-2.974 I24.205 J97.026
G01 X267.716 Y0 
G01 X0 Y-40 
G03 X30 Y-30 I30 J0
G01 X0 Y-195 
G01 X0 Y-7.731 
M8
G40
G253 (Teil 60: VERSTEIFUNGSBLECH__SWD_9602-0001-P2098_001_Blatt2)
M05
G1 X199.032 Y-332.782 
M06
G41 R=P1100 E0
M7
G01 X30.047 Y0 
G01 X2.6 Y1.5 
G03 X-69.968 Y-1.5 I-34.968 J-1.5
G03 X69.968 Y-1.5 I35 J0
G01 X-2.6 Y1.5 
G01 X-7.898 Y4.537 
M8
G40
M05
G1 X-4.145 Y-127.487 
M06
G41 R=P1100 E0
M7
G01 X-8.113 Y41.272 
G01 X-1.868 Y2.35 
G02 X-87.965 Y98.692 I-10.344 J79.328
G01 X14.648 Y58.716 
G03 X2.974 Y24.204 I-97.026 J24.205
G01 X0 Y267.716 
G01 X40 Y0 
G03 X30 Y30 I0 J30
G01 X195 Y0 
G03 X30 Y-30 I30 J0
G01 X0 Y-310 
G01 X-122.83 Y-59.908 
G03 X-42.833 Y-39.997 I43.837 J-89.879
G02 X-56.027 Y-38.979 I-69.336 J39.906
G01 X-1.098 Y-2.793 
G01 X-3.525 Y-9.004 
M8
G40
G253 (Teil 61: Art. 10.842.194.0)
M05
G1 X246.667 Y577.221 
M06
G41 R=P1100 E0
M7
G01 X0 Y-34.1 
G01 X-15.768 Y0 
G01 X-2.902 Y0.768 
G02 X-2.328 Y-0.575 I-2.328 J4.425
G01 X-68 Y0 
G03 X-10 Y-10 I0 J-10
G01 X0 Y-17.5 
G02 X-5 Y-5 I-5 J0
G01 X-240 Y0 
G02 X-5 Y5 I0 J5
G01 X0 Y17.5 
G03 X-10 Y10 I-10 J0
G01 X-68 Y0 
G02 X-5 Y5 I0 J5
G01 X0 Y110 
G02 X5 Y5 I5 J0
G01 X53.139 Y0 
G02 X4.83 Y-3.325 I-0.137 J-5.37
G03 X3.636 Y-1.802 I3.4 J2.291
G01 X36.583 Y2.109 
G03 X19.338 Y12.32 I-1.353 J23.461
G02 X8.456 Y15.609 I402.921 J-208.17
G02 X44.794 Y26.089 I44.831 J-25.474
G01 X64.485 Y0 
G02 X45.345 Y-27.084 I0 J-51.5
G01 X7.868 Y-14.613 
G03 X19.338 Y-12.32 I20.691 J11.141
G01 X36.62 Y-2.111 
G03 X4.227 Y2.835 I0.178 J4.303
G02 X4.203 Y2.294 I4.235 J-2.761
G01 X53.139 Y0 
G02 X5 Y-5 I0 J-5
G01 X0 Y-110 
G02 X-0.559 Y-2.296 I-5 J0
G01 X0.788 Y-2.896 
G01 X1.642 Y-5.147 
M8
G40
(HEADS 1 PITCH 230)
G253 (ANZAHL BRENNER:1 ABSTAND:230)
G253 (Teil 62: Art. 10.842.168.1)
M05
G1 X761.709 Y-1132.707 
M06
G41 R=P1100 E0
M7
G01 X13.502 Y-24.815 
G01 X2.545 Y-1.591 
G01 X51.652 Y27.464 
G02 X13.524 Y-4.135 I4.695 J-8.829
G01 X42.018 Y-79.024 
G03 X13.524 Y-4.135 I8.83 J4.695
G01 X66.943 Y35.594 
G02 X12.886 Y-3.094 I4.681 J-8.887
G01 X61.735 Y-88.165 
G03 X5.66 Y-1.881 I4.118 J2.934
G01 X3.259 Y1.634 
G02 X6.656 Y-2.122 I2.241 J-4.47
G01 X40.368 Y-75.922 
G02 X-2.067 Y-6.762 I-4.415 J-2.347
G01 X-17.973 Y-9.557 
G01 X-37.504 Y-22.803 
G03 X-11.103 Y-14.681 I13.157 J-21.489
G01 X-11.386 Y-41.06 
G02 X-34.592 Y-43.101 I-67.454 J18.706
G01 X-45.071 Y-23.964 
G02 X-55.076 Y-4.576 I-32.863 J61.807
G01 X-40.406 Y13.52 
G03 X-18.38 Y-0.995 I-7.921 J-23.919
G01 X-39.876 Y-18.341 
G01 X-17.973 Y-9.557 
G02 X-6.762 Y2.067 I-2.347 J4.415
G01 X-40.375 Y75.933 
G02 X2.067 Y6.762 I4.415 J2.347
G01 X2.363 Y1.256 
G03 X2.321 Y6.206 I-2.398 J4.434
G01 X-38.571 Y100.482 
G02 X4.641 Y12.413 I9.392 J3.563
G01 X66.943 Y35.594 
G03 X4.135 Y13.524 I-4.695 J8.83
G01 X-42.018 Y79.024 
G02 X4.135 Y13.524 I8.83 J4.695
G01 X51.652 Y27.464 
G01 X0.104 Y3 
G01 X0.67 Y8.733 
M8
G40
G253 (Teil 63: Art. 10.842.168.1)
M05
G1 X89.333 Y201.066 
M06
G41 R=P1100 E0
M7
G01 X30.046 Y0 
G01 X2.6 Y1.5 
G01 X0 Y58.5 
G02 X10 Y10 I10 J0
G01 X89.5 Y0 
G03 X10 Y10 I0 J10
G01 X0 Y75.818 
G02 X8.781 Y9.925 I10.045 J-0.039
G01 X106.828 Y13.118 
G03 X4.318 Y4.115 I-0.657 J5.013
G01 X0.087 Y3.644 
G02 X4.999 Y4.88 I4.999 J-0.12
G01 X85.987 Y0 
G02 X5 Y-5 I0 J-5
G01 X0 Y-20.356 
G01 X2.527 Y-43.819 
G03 X7.75 Y-16.695 I25.15 J1.528
G01 X30.908 Y-29.33 
G02 X21.816 Y-50.777 I-48.184 J-50.777
G01 X0 Y-51.046 
G02 X-21.816 Y-50.777 I-70 J0
G01 X-30.908 Y-29.33 
G03 X-7.75 Y-16.695 I17.4 J-18.224
G01 X-2.527 Y-43.819 
G01 X0 Y-20.356 
G02 X-5 Y-5 I-5 J0
G01 X-86 Y0 
G02 X-5 Y5 I0 J5
G01 X0 Y2.676 
G03 X-4.391 Y4.963 I-5.041 J-0.036
G01 X-106.828 Y13.118 
G02 X-8.781 Y9.926 I1.263 J9.965
G01 X0 Y75.818 
G03 X-10 Y10 I-10 J0
G01 X-89.5 Y0 
G02 X-10 Y10 I0 J10
G01 X0 Y58.5 
G01 X-2.6 Y1.5 
G01 X-7.359 Y4.436 
M8
G40
G253 (Teil 64: Art. 10.842.168.1)
M05
G1 X-121.117 Y180.221 
M06
G41 R=P1100 E0
M7
G01 X11.938 Y23.732 
G01 X-0.156 Y2.998 
G01 X-52.124 Y26.558 
G02 X-4.37 Y13.45 I4.54 J8.91
G01 X40.632 Y79.745 
G03 X-4.37 Y13.45 I-8.91 J4.54
G01 X-67.554 Y34.421 
G02 X-4.857 Y12.33 I4.595 J8.932
G01 X36.811 Y101.14 
G03 X-1.706 Y5.716 I-4.765 J1.69
G01 X-3.207 Y1.732 
G02 X-2.079 Y6.669 I2.376 J4.399
G01 X39.037 Y76.615 
G02 X6.725 Y2.185 I4.455 J-2.27
G01 X18.137 Y-9.241 
G01 X40.19 Y-17.642 
G03 X18.394 Y-0.675 I10.057 J23.103
G01 X40.165 Y14.224 
G02 X55.147 Y-3.614 I23.367 J-65.985
G01 X45.483 Y-23.175 
G02 X35.338 Y-42.49 I-31.779 J-62.37
G01 X12.101 Y-40.854 
G03 X11.357 Y-14.485 I24.137 J7.23
G01 X37.896 Y-22.145 
G01 X18.137 Y-9.241 
G02 X2.185 Y-6.725 I-2.27 J-4.455
G01 X-39.043 Y-76.627 
G02 X-6.725 Y-2.185 I-4.455 J2.27
G01 X-2.385 Y1.215 
G03 X-6.415 Y-1.659 I-2.256 J-4.508
G01 X-60.187 Y-89.229 
G02 X-12.83 Y-3.318 I-8.305 J5.65
G01 X-67.554 Y34.42 
G03 X-13.45 Y-4.37 I-4.54 J-8.91
G01 X-40.632 Y-79.745 
G02 X-13.45 Y-4.37 I-8.91 J4.54
G01 X-52.124 Y26.558 
G01 X-2.517 Y-1.636 
G01 X-8.134 Y-3.618 
M8
G40
G253 (Teil 65: Art. 10.842.168.1)
M05
G1 X-240.669 Y-18.456 
M06
G41 R=P1100 E0
M7
G01 X-13.486 Y25.747 
G01 X-2.545 Y1.591 
G01 X-51.652 Y-27.464 
G02 X-13.524 Y4.135 I-4.695 J8.83
G01 X-42.018 Y79.024 
G03 X-13.524 Y4.135 I-8.829 J-4.695
G01 X-66.943 Y-35.594 
G02 X-12.886 Y3.094 I-4.681 J8.887
G01 X-61.735 Y88.165 
G03 X-5.66 Y1.881 I-4.118 J-2.934
G01 X-3.259 Y-1.634 
G02 X-6.656 Y2.122 I-2.241 J4.47
G01 X-40.368 Y75.922 
G02 X2.067 Y6.762 I4.415 J2.347
G01 X17.973 Y9.557 
G01 X37.504 Y22.803 
G03 X11.103 Y14.68 I-13.156 J21.489
G01 X11.386 Y41.06 
G02 X34.591 Y43.1 I67.454 J-18.706
G01 X45.071 Y23.965 
G02 X55.075 Y4.576 I32.863 J-61.806
G01 X40.407 Y-13.52 
G03 X18.379 Y0.995 I7.922 J23.919
G01 X39.876 Y18.341 
G01 X17.973 Y9.557 
G02 X6.762 Y-2.067 I2.347 J-4.415
G01 X40.375 Y-75.933 
G02 X-2.067 Y-6.762 I-4.415 J-2.347
G01 X-2.363 Y-1.256 
G03 X-2.321 Y-6.207 I2.398 J-4.434
G01 X38.571 Y-100.482 
G02 X-4.641 Y-12.413 I-9.391 J-3.563
G01 X-66.943 Y-35.594 
G03 X-4.135 Y-13.524 I4.695 J-8.829
G01 X42.018 Y-79.024 
G02 X-4.135 Y-13.524 I-8.829 J-4.695
G01 X-51.652 Y-27.464 
G01 X-0.104 Y-3 
G01 X-0.795 Y-7.19 
M8
G40
G253 (Teil 66: Art. 10.842.168.1)
M05
G1 X-86.285 Y-205.533 
M06
G41 R=P1100 E0
M7
G01 X-31.661 Y0 
G01 X-2.6 Y-1.5 
G01 X0 Y-58.5 
G02 X-10 Y-10 I-10 J0
G01 X-89.5 Y0 
G03 X-10 Y-10 I0 J-10
G01 X0 Y-75.818 
G02 X-8.781 Y-9.925 I-10.045 J0.039
G01 X-106.828 Y-13.118 
G03 X-4.318 Y-4.115 I0.657 J-5.013
G01 X-0.087 Y-3.644 
G02 X-4.999 Y-4.88 I-4.999 J0.12
G01 X-85.987 Y0 
G02 X-5 Y5 I0 J5
G01 X0 Y20.356 
G01 X-2.527 Y43.819 
G03 X-7.75 Y16.695 I-25.15 J-1.528
G01 X-30.908 Y29.33 
G02 X-21.816 Y50.778 I48.184 J50.777
G01 X0 Y51.045 
G02 X21.816 Y50.777 I70 J0
G01 X30.907 Y29.329 
G03 X7.75 Y16.695 I-17.4 J18.224
G01 X2.527 Y43.819 
G01 X0 Y20.356 
G02 X5 Y5 I5 J0
G01 X86 Y0 
G02 X5 Y-5 I0 J-5
G01 X0 Y-2.676 
G03 X4.391 Y-4.963 I5.041 J0.036
G01 X106.828 Y-13.118 
G02 X8.781 Y-9.925 I-1.263 J-9.965
G01 X0 Y-75.818 
G03 X10 Y-10 I10 J0
G01 X89.5 Y0 
G02 X10 Y-10 I0 J-10
G01 X0 Y-58.5 
G01 X2.6 Y-1.5 
G01 X6.942 Y-5.208 
M8
G40
G253 (Teil 67: Art. 10.842.168.1)
M05
G1 X118.482 Y-178.553 
M06
G41 R=P1100 E0
M7
G01 X-11.412 Y-23.708 
G01 X0.156 Y-2.998 
G01 X52.124 Y-26.558 
G02 X4.37 Y-13.45 I-4.54 J-8.91
G01 X-40.632 Y-79.745 
G03 X4.37 Y-13.45 I8.91 J-4.54
G01 X67.554 Y-34.421 
G02 X4.857 Y-12.33 I-4.595 J-8.932
G01 X-36.811 Y-101.14 
G03 X1.706 Y-5.716 I4.765 J-1.69
G01 X3.207 Y-1.732 
G02 X2.079 Y-6.669 I-2.376 J-4.399
G01 X-39.037 Y-76.615 
G02 X-6.725 Y-2.185 I-4.455 J2.27
G01 X-18.137 Y9.241 
G01 X-40.19 Y17.642 
G03 X-18.394 Y0.674 I-10.056 J-23.103
G01 X-40.165 Y-14.224 
G02 X-55.147 Y3.615 I-23.367 J65.985
G01 X-45.482 Y23.174 
G02 X-35.338 Y42.491 I31.78 J62.37
G01 X-12.101 Y40.853 
G03 X-11.357 Y14.485 I-24.137 J-7.231
G01 X-37.896 Y22.145 
G01 X-18.137 Y9.241 
G02 X-2.185 Y6.725 I2.27 J4.455
G01 X39.043 Y76.626 
G02 X6.725 Y2.185 I4.455 J-2.27
G01 X2.385 Y-1.215 
G03 X6.415 Y1.659 I2.256 J4.508
G01 X60.187 Y89.229 
G02 X12.83 Y3.318 I8.305 J-5.65
G01 X67.554 Y-34.421 
G03 X13.45 Y4.37 I4.54 J8.91
G01 X40.632 Y79.745 
G02 X13.45 Y4.37 I8.91 J-4.54
G01 X52.124 Y-26.558 
G01 X2.517 Y1.636 
G01 X8.459 Y2.64 
M8
G40
G253 (Teil 68: Neubacher Scheibe s40 +2mm bei Stege)
M05
G1 X316.419 Y244.377 
M06
G41 R=P1100 E0
M7
G01 X-22.015 Y12.682 
G01 X-3.002 Y0.001 
G03 X-5.968 Y-23.69 I44.032 J-23.69
G01 X0 Y-55.425 
G03 X25 Y-43.301 I50 J0
G01 X345.358 Y-199.393 
G03 X71.28 Y24.375 I25 J43.301
G03 X0.003 Y492.056 I-601.772 J246.032
G03 X-71.282 Y24.383 I-46.283 J-18.919
G01 X-345.359 Y-199.393 
G03 X-17.532 Y-17.014 I25 J-43.301
G01 X1.502 Y-2.599 
G01 X2.871 Y-5.919 
M8
G40
M05
G1 X-109.805 Y139.231 
M06
G41 R=P1100 E0
M7
G01 X-22.065 Y-12.68 
G01 X-1.502 Y-2.598 
G03 X17.531 Y-17.014 I42.532 J26.287
G01 X48.001 Y-27.713 
G03 X50 Y-0.001 I25 J43.301
G01 X345.359 Y199.393 
G03 X14.531 Y73.918 I-25 J43.301
G03 X-426.139 Y246.032 I-513.956 J-398.134
G03 X-56.75 Y-49.542 I-6.75 J-49.542
G01 X0 Y-398.786 
G03 X5.968 Y-23.69 I50 J0
G01 X3.002 Y0.001 
G01 X8.175 Y-0.487 
M8
G40
M05
G1 X-177.261 Y-26.107 
M06
G41 R=P1100 E0
M7
G01 X0.115 Y-24.808 
G01 X1.499 Y-2.6 
G03 X23.5 Y6.676 I-1.499 J49.978
G01 X48.001 Y27.713 
G03 X25 Y43.301 I-25 J43.301
G01 X0 Y398.786 
G03 X-56.75 Y49.542 I-50 J0
G03 X-426.138 Y-246.031 I87.817 J-644.166
G03 X14.53 Y-73.918 I39.53 J-30.617
G01 X345.358 Y-199.393 
G03 X23.499 Y-6.676 I25 J43.301
G01 X1.501 Y2.6 
G01 X4.993 Y5.845 
M8
G40
M05
G1 X-69.355 Y-163.773 
M06
G41 R=P1100 E0
M7
G01 X24.393 Y-14.105 
G01 X3.001 Y-0.002 
G03 X5.969 Y23.69 I-44.031 J23.691
G01 X0 Y55.427 
G03 X-25 Y43.301 I-50 J0
G01 X-345.358 Y199.393 
G03 X-71.28 Y-24.376 I-25 J-43.301
G03 X0 Y-492.062 I601.773 J-246.031
G03 X71.279 Y-24.376 I46.28 J18.925
G01 X345.359 Y199.393 
G03 X17.532 Y17.013 I-25 J43.301
G01 X-1.501 Y2.6 
G01 X-3.067 Y7.086 
M8
G40
M05
G1 X266.692 Y44.316 
M06
G41 R=P1100 E0
M7
G01 X31.736 Y0 
G01 X2.6 Y1.5 
G03 X-257.991 Y-1.499 I-128.991 J-1.499
G03 X257.991 Y-1.501 I129 J0
G01 X-2.6 Y1.5 
G01 X-9.184 Y4.815 
M8
G40
M05
G1 X-178.092 Y-599.413 
M06
G41 R=P1100 E0
M7
G01 X27.274 Y0.11 
G01 X2.611 Y1.48 
G01 X0 Y397.286 
G03 X-25 Y43.301 I-50 J0
G01 X-48 Y27.713 
G03 X-50 Y0 I-25 J-43.301
G01 X-345.358 Y-199.393 
G03 X-14.53 Y-73.918 I25 J-43.301
G03 X426.132 Y-246.03 I513.956 J398.135
G03 X56.734 Y48.041 I6.757 J49.541
G01 X-2.589 Y1.52 
G01 X-7.6 Y4.364 
M8
G40
M05
G1 X529.711 Y211.913 
M06
G41 R=P1100 E0
M7
G01 X23.308 Y-18.227 
G01 X2.976 Y-0.387 
G03 X-15.425 Y72.724 I-40.426 J29.423
G01 X-345.359 Y199.393 
G03 X-50 Y0 I-25 J-43.301
G01 X-48 Y-27.713 
G03 X-25 Y-43.301 I25 J-43.301
G01 X0 Y-398.785 
G03 X56.75 Y-49.542 I50 J0
G03 X425.212 Y244.838 I-87.817 J644.166
G01 X-1.154 Y2.773 
G01 X-3.179 Y8.326 
M8
G40
M05
G1 X-28.974 Y-343.663 
M06
G41 R=P1100 E0
M7
G01 X0 Y29.439 
G01 X-10.029 Y14.826 
G01 X-2.705 Y1.301 
G02 X-935.083 Y1371.575 I-466.921 J686.211
G02 X937.553 Y-1369.888 I468.162 J-685.364
G01 X0.235 Y-2.988 
G01 X-0.409 Y-6.698 
M8
G40
(HEADS 1 PITCH 0)
G253 (ANZAHL BRENNER:1 ABSTAND:0)
G253 (Teil 69: VERSTEIFUNGSBLECH__SWD_9602-0001-P2098_001_Blatt2)
M05
G1 X149.285 Y-53.738 
M06
G41 R=P1100 E0
M7
G01 X-33.686 Y0 
G01 X-2.6 Y-1.5 
G03 X69.968 Y1.499 I34.968 J1.5
G03 X-69.968 Y1.5 I-35 J0.001
G01 X2.6 Y-1.5 
G01 X4.607 Y-3.457 
M8
G40
M05
G1 X422.761 Y-56.543 
M06
G41 R=P1100 E0
M7
G01 X-25 Y0 
G01 X-267.715 Y0 
G03 X-24.205 Y-2.974 I0 J-100
G01 X-58.717 Y-14.648 
G02 X-59.269 Y146.958 I-19.364 J77.621
G03 X39.997 Y42.833 I-49.882 J86.67
G01 X59.908 Y122.831 
G01 X310 Y0 
G03 X30 Y-30 I30 J0
G01 X0 Y-195 
G03 X-30 Y-30 I0 J-30
G01 X0 Y-40 
G01 X0 Y-5 
M8
G40
G253 (Teil 70: VERSTEIFUNGSBLECH__SWD_9602-0001-P2098_001_Blatt2)
M05
G1 X-1193.856 Y1852.587 
M06
G41 R=P1100 E0
M7
G01 X26.458 Y0 
G01 X2.6 Y1.5 
G03 X-69.968 Y-1.5 I-34.968 J-1.5
G03 X69.968 Y-1.5 I35 J0
G01 X-2.6 Y1.5 
G01 X-6.61 Y3.497 
M8
G40
M05
G1 X-425.758 Y-245.148 
M06
G41 R=P1100 E0
M7
G01 X0 Y36.65 
G01 X0 Y195 
G03 X30 Y30 I0 J30
G01 X0 Y40 
G01 X267.715 Y0 
G03 X24.204 Y2.973 I0 J100
G01 X58.717 Y14.648 
G02 X59.269 Y-146.958 I19.364 J-77.621
G03 X-39.997 Y-42.833 I49.882 J-86.671
G01 X-59.908 Y-122.83 
G01 X-310 Y0 
G03 X-30 Y30 I-30 J0
G01 X-7.32 Y0 
M8
G40
G253 (Teil 71: VERSTEIFUNGSBLECH__SWD_9602-0001-P2098_001_Blatt2)
M05
G1 X824.31 Y208.325 
M06
G41 R=P1100 E0
M7
G01 X-34.851 Y0 
G01 X-2.6 Y-1.5 
G03 X69.968 Y1.499 I34.968 J1.5
G03 X-69.968 Y1.5 I-35 J0.001
G01 X2.6 Y-1.5 
G01 X4.301 Y-3.664 
M8
G40
M05
G1 X453.935 Y-201.335 
M06
G41 R=P1100 E0
M7
G01 X-25.868 Y0 
G03 X-30 Y-30 I0 J-30
G01 X-310 Y0 
G01 X-59.908 Y122.83 
G03 X-39.997 Y42.833 I-89.879 J-43.837
G02 X59.27 Y146.958 I39.906 J69.336
G01 X58.716 Y-14.648 
G03 X24.204 Y-2.974 I24.205 J97.026
G01 X267.716 Y0 
G01 X0 Y-40 
G03 X30 Y-30 I30 J0
G01 X0 Y-195 
G01 X0 Y-7.731 
M8
G40
G253 (Teil 72: VERSTEIFUNGSBLECH__SWD_9602-0001-P2098_001_Blatt2)
M05
G1 X188.17 Y-336.415 
M06
G41 R=P1100 E0
M7
G01 X30.047 Y0 
G01 X2.6 Y1.5 
G03 X-69.968 Y-1.5 I-34.968 J-1.5
G03 X69.968 Y-1.5 I35 J0
G01 X-2.6 Y1.5 
G01 X-7.898 Y4.537 
M8
G40
M05
G1 X-7.765 Y-123.653 
M06
G41 R=P1100 E0
M7
G01 X-6.321 Y37.185 
G01 X-1.815 Y2.391 
G02 X-86.189 Y98.904 I-8.568 J79.54
G01 X14.648 Y58.716 
G03 X2.974 Y24.204 I-97.026 J24.205
G01 X0 Y267.716 
G01 X40 Y0 
G03 X30 Y30 I0 J30
G01 X195 Y0 
G03 X30 Y-30 I30 J0
G01 X0 Y-310 
G01 X-122.83 Y-59.908 
G03 X-42.833 Y-39.997 I43.837 J-89.879
G02 X-57.793 Y-39.257 I-69.336 J39.906
G01 X-1.16 Y-2.768 
G01 X-4.126 Y-9.682 
M8
G40
G253 (Teil 73: Art. 10.842.194.0)
M05
G1 X260.487 Y585.118 
M06
G41 R=P1100 E0
M7
G01 X0 Y-34.099 
G01 X-15.768 Y0 
G01 X-2.902 Y0.768 
G02 X-2.328 Y-0.575 I-2.328 J4.425
G01 X-68 Y0 
G03 X-10 Y-10 I0 J-10
G01 X0 Y-17.5 
G02 X-5 Y-5 I-5 J0
G01 X-240 Y0 
G02 X-5 Y5 I0 J5
G01 X0 Y17.5 
G03 X-10 Y10 I-10 J0
G01 X-68 Y0 
G02 X-5 Y5 I0 J5
G01 X0 Y110 
G02 X5 Y5 I5 J0
G01 X53.139 Y0 
G02 X4.83 Y-3.325 I-0.137 J-5.37
G03 X3.636 Y-1.802 I3.4 J2.291
G01 X36.583 Y2.109 
G03 X19.338 Y12.32 I-1.353 J23.461
G02 X8.456 Y15.609 I402.921 J-208.17
G02 X44.794 Y26.089 I44.831 J-25.474
G01 X64.485 Y0 
G02 X45.345 Y-27.084 I0 J-51.5
G01 X7.868 Y-14.613 
G03 X19.338 Y-12.32 I20.691 J11.141
G01 X36.62 Y-2.111 
G03 X4.227 Y2.835 I0.178 J4.303
G02 X4.203 Y2.294 I4.235 J-2.761
G01 X53.139 Y0 
G02 X5 Y-5 I0 J-5
G01 X0 Y-110 
G02 X-0.559 Y-2.296 I-5 J0
G01 X0.788 Y-2.896 
G01 X1.642 Y-5.147 
M8
G40
(HEADS 1 PITCH 230)
G253 (ANZAHL BRENNER:1 ABSTAND:230)
G253 (Teil 74: Art. 10.842.168.1)
M05
G1 X752.89 Y-1133.714 
M06
G41 R=P1100 E0
M7
G01 X13.502 Y-24.816 
G01 X2.545 Y-1.591 
G01 X51.652 Y27.464 
G02 X13.524 Y-4.135 I4.695 J-8.829
G01 X42.018 Y-79.024 
G03 X13.524 Y-4.135 I8.83 J4.695
G01 X66.943 Y35.594 
G02 X12.886 Y-3.094 I4.681 J-8.887
G01 X61.735 Y-88.165 
G03 X5.66 Y-1.881 I4.118 J2.934
G01 X3.259 Y1.634 
G02 X6.656 Y-2.122 I2.241 J-4.47
G01 X40.368 Y-75.922 
G02 X-2.067 Y-6.762 I-4.415 J-2.347
G01 X-17.973 Y-9.557 
G01 X-37.504 Y-22.803 
G03 X-11.103 Y-14.681 I13.157 J-21.489
G01 X-11.386 Y-41.06 
G02 X-34.592 Y-43.101 I-67.454 J18.706
G01 X-45.071 Y-23.964 
G02 X-55.076 Y-4.576 I-32.863 J61.807
G01 X-40.406 Y13.52 
G03 X-18.38 Y-0.995 I-7.921 J-23.919
G01 X-39.876 Y-18.341 
G01 X-17.973 Y-9.557 
G02 X-6.762 Y2.067 I-2.347 J4.415
G01 X-40.375 Y75.933 
G02 X2.067 Y6.762 I4.415 J2.347
G01 X2.363 Y1.256 
G03 X2.321 Y6.206 I-2.398 J4.434
G01 X-38.571 Y100.482 
G02 X4.641 Y12.413 I9.392 J3.563
G01 X66.943 Y35.594 
G03 X4.135 Y13.524 I-4.695 J8.83
G01 X-42.018 Y79.024 
G02 X4.135 Y13.524 I8.83 J4.695
G01 X51.652 Y27.464 
G01 X0.104 Y3 
G01 X0.67 Y8.733 
M8
G40
G253 (Teil 75: Art. 10.842.168.1)
M05
G1 X86.252 Y202.22 
M06
G41 R=P1100 E0
M7
G01 X30.045 Y0 
G01 X2.6 Y1.5 
G01 X0 Y58.5 
G02 X10 Y10 I10 J0
G01 X89.5 Y0 
G03 X10 Y10 I0 J10
G01 X0 Y75.818 
G02 X8.781 Y9.925 I10.045 J-0.039
G01 X106.828 Y13.118 
G03 X4.318 Y4.115 I-0.657 J5.013
G01 X0.087 Y3.644 
G02 X4.999 Y4.88 I4.999 J-0.12
G01 X85.987 Y0 
G02 X5 Y-5 I0 J-5
G01 X0 Y-20.356 
G01 X2.527 Y-43.819 
G03 X7.75 Y-16.695 I25.15 J1.528
G01 X30.908 Y-29.33 
G02 X21.816 Y-50.777 I-48.184 J-50.777
G01 X0 Y-51.046 
G02 X-21.816 Y-50.777 I-70 J0
G01 X-30.908 Y-29.33 
G03 X-7.75 Y-16.695 I17.4 J-18.224
G01 X-2.527 Y-43.819 
G01 X0 Y-20.356 
G02 X-5 Y-5 I-5 J0
G01 X-86 Y0 
G02 X-5 Y5 I0 J5
G01 X0 Y2.676 
G03 X-4.391 Y4.963 I-5.041 J-0.036
G01 X-106.828 Y13.118 
G02 X-8.781 Y9.926 I1.263 J9.965
G01 X0 Y75.818 
G03 X-10 Y10 I-10 J0
G01 X-89.5 Y0 
G02 X-10 Y10 I0 J10
G01 X0 Y58.5 
G01 X-2.6 Y1.5 
G01 X-7.359 Y4.436 
M8
G40
G253 (Teil 76: Art. 10.842.168.1)
M05
G1 X-119.367 Y178.963 
M06
G41 R=P1100 E0
M7
G01 X11.938 Y23.732 
G01 X-0.156 Y2.998 
G01 X-52.124 Y26.558 
G02 X-4.37 Y13.45 I4.54 J8.91
G01 X40.632 Y79.745 
G03 X-4.37 Y13.45 I-8.91 J4.54
G01 X-67.554 Y34.421 
G02 X-4.857 Y12.33 I4.595 J8.932
G01 X36.811 Y101.14 
G03 X-1.706 Y5.716 I-4.765 J1.69
G01 X-3.207 Y1.732 
G02 X-2.079 Y6.669 I2.376 J4.399
G01 X39.037 Y76.615 
G02 X6.725 Y2.185 I4.455 J-2.27
G01 X18.137 Y-9.241 
G01 X40.19 Y-17.642 
G03 X18.394 Y-0.675 I10.057 J23.103
G01 X40.165 Y14.224 
G02 X55.147 Y-3.614 I23.367 J-65.985
G01 X45.483 Y-23.175 
G02 X35.338 Y-42.49 I-31.779 J-62.37
G01 X12.101 Y-40.854 
G03 X11.357 Y-14.485 I24.137 J7.23
G01 X37.896 Y-22.145 
G01 X18.137 Y-9.241 
G02 X2.185 Y-6.725 I-2.27 J-4.455
G01 X-39.043 Y-76.627 
G02 X-6.725 Y-2.185 I-4.455 J2.27
G01 X-2.385 Y1.215 
G03 X-6.415 Y-1.659 I-2.256 J-4.508
G01 X-60.187 Y-89.229 
G02 X-12.83 Y-3.318 I-8.305 J5.65
G01 X-67.554 Y34.42 
G03 X-13.45 Y-4.37 I-4.54 J-8.91
G01 X-40.632 Y-79.745 
G02 X-13.45 Y-4.37 I-8.91 J4.54
G01 X-52.124 Y26.558 
G01 X-2.517 Y-1.636 
G01 X-8.134 Y-3.618 
M8
G40
G253 (Teil 77: Art. 10.842.168.1)
M05
G1 X-240.443 Y-19.054 
M06
G41 R=P1100 E0
M7
G01 X-13.486 Y25.748 
G01 X-2.545 Y1.591 
G01 X-51.652 Y-27.464 
G02 X-13.524 Y4.135 I-4.695 J8.83
G01 X-42.018 Y79.024 
G03 X-13.524 Y4.135 I-8.829 J-4.695
G01 X-66.943 Y-35.594 
G02 X-12.886 Y3.094 I-4.681 J8.887
G01 X-61.735 Y88.165 
G03 X-5.66 Y1.881 I-4.118 J-2.934
G01 X-3.259 Y-1.634 
G02 X-6.656 Y2.122 I-2.241 J4.47
G01 X-40.368 Y75.922 
G02 X2.067 Y6.762 I4.415 J2.347
G01 X17.973 Y9.557 
G01 X37.504 Y22.803 
G03 X11.103 Y14.68 I-13.156 J21.489
G01 X11.386 Y41.06 
G02 X34.591 Y43.1 I67.454 J-18.706
G01 X45.071 Y23.965 
G02 X55.075 Y4.576 I32.863 J-61.806
G01 X40.407 Y-13.52 
G03 X18.379 Y0.995 I7.922 J23.919
G01 X39.876 Y18.341 
G01 X17.973 Y9.557 
G02 X6.762 Y-2.067 I2.347 J-4.415
G01 X40.375 Y-75.933 
G02 X-2.067 Y-6.762 I-4.415 J-2.347
G01 X-2.363 Y-1.256 
G03 X-2.321 Y-6.207 I2.398 J-4.434
G01 X38.571 Y-100.482 
G02 X-4.641 Y-12.413 I-9.391 J-3.563
G01 X-66.943 Y-35.594 
G03 X-4.135 Y-13.524 I4.695 J-8.829
G01 X42.018 Y-79.024 
G02 X-4.135 Y-13.524 I-8.829 J-4.695
G01 X-51.652 Y-27.464 
G01 X-0.104 Y-3 
G01 X-0.795 Y-7.19 
M8
G40
G253 (Teil 78: Art. 10.842.168.1)
M05
G1 X-88.08 Y-204.843 
M06
G41 R=P1100 E0
M7
G01 X-31.66 Y0 
G01 X-2.6 Y-1.5 
G01 X0 Y-58.5 
G02 X-10 Y-10 I-10 J0
G01 X-89.5 Y0 
G03 X-10 Y-10 I0 J-10
G01 X0 Y-75.818 
G02 X-8.781 Y-9.925 I-10.045 J0.039
G01 X-106.828 Y-13.118 
G03 X-4.318 Y-4.115 I0.657 J-5.013
G01 X-0.087 Y-3.644 
G02 X-4.999 Y-4.88 I-4.999 J0.12
G01 X-85.987 Y0 
G02 X-5 Y5 I0 J5
G01 X0 Y20.356 
G01 X-2.527 Y43.819 
G03 X-7.75 Y16.695 I-25.15 J-1.528
G01 X-30.908 Y29.33 
G02 X-21.816 Y50.778 I48.184 J50.777
G01 X0 Y51.045 
G02 X21.816 Y50.777 I70 J0
G01 X30.907 Y29.329 
G03 X7.75 Y16.695 I-17.4 J18.224
G01 X2.527 Y43.819 
G01 X0 Y20.356 
G02 X5 Y5 I5 J0
G01 X86 Y0 
G02 X5 Y-5 I0 J-5
G01 X0 Y-2.676 
G03 X4.391 Y-4.963 I5.041 J0.036
G01 X106.828 Y-13.118 
G02 X8.781 Y-9.925 I-1.263 J-9.965
G01 X0 Y-75.818 
G03 X10 Y-10 I10 J0
G01 X89.5 Y0 
G02 X10 Y-10 I0 J-10
G01 X0 Y-58.5 
G01 X2.6 Y-1.5 
G01 X6.942 Y-5.208 
M8
G40
G253 (Teil 79: Art. 10.842.168.1)
M05
G1 X121.342 Y-177.241 
M06
G41 R=P1100 E0
M7
G01 X-11.412 Y-23.708 
G01 X0.156 Y-2.998 
G01 X52.124 Y-26.558 
G02 X4.37 Y-13.45 I-4.54 J-8.91
G01 X-40.632 Y-79.745 
G03 X4.37 Y-13.45 I8.91 J-4.54
G01 X67.554 Y-34.421 
G02 X4.857 Y-12.33 I-4.595 J-8.932
G01 X-36.811 Y-101.14 
G03 X1.706 Y-5.716 I4.765 J-1.69
G01 X3.207 Y-1.732 
G02 X2.079 Y-6.669 I-2.376 J-4.399
G01 X-39.037 Y-76.615 
G02 X-6.725 Y-2.185 I-4.455 J2.27
G01 X-18.137 Y9.241 
G01 X-40.19 Y17.642 
G03 X-18.394 Y0.674 I-10.056 J-23.103
G01 X-40.165 Y-14.224 
G02 X-55.147 Y3.615 I-23.367 J65.985
G01 X-45.482 Y23.174 
G02 X-35.338 Y42.491 I31.78 J62.37
G01 X-12.101 Y40.853 
G03 X-11.357 Y14.485 I-24.137 J-7.231
G01 X-37.896 Y22.145 
G01 X-18.137 Y9.241 
G02 X-2.185 Y6.725 I2.27 J4.455
G01 X39.043 Y76.626 
G02 X6.725 Y2.185 I4.455 J-2.27
G01 X2.385 Y-1.215 
G03 X6.415 Y1.659 I2.256 J4.508
G01 X60.187 Y89.229 
G02 X12.83 Y3.318 I8.305 J-5.65
G01 X67.554 Y-34.421 
G03 X13.45 Y4.37 I4.54 J8.91
G01 X40.632 Y79.745 
G02 X13.45 Y4.37 I8.91 J-4.54
G01 X52.124 Y-26.558 
G01 X2.517 Y1.636 
G01 X8.459 Y2.64 
M8
G40
G253 (Teil 80: Neubacher Scheibe s40 +2mm bei Stege)
M05
G1 X315.431 Y243.564 
M06
G41 R=P1100 E0
M7
G01 X-22.015 Y12.682 
G01 X-3.002 Y0.001 
G03 X-5.968 Y-23.69 I44.032 J-23.69
G01 X0 Y-55.425 
G03 X25 Y-43.301 I50 J0
G01 X345.358 Y-199.393 
G03 X71.28 Y24.375 I25 J43.301
G03 X0.003 Y492.056 I-601.772 J246.032
G03 X-71.282 Y24.383 I-46.283 J-18.919
G01 X-345.359 Y-199.393 
G03 X-17.532 Y-17.014 I25 J-43.301
G01 X1.502 Y-2.599 
G01 X2.871 Y-5.919 
M8
G40
M05
G1 X-109.806 Y139.231 
M06
G41 R=P1100 E0
M7
G01 X-22.065 Y-12.68 
G01 X-1.502 Y-2.598 
G03 X17.531 Y-17.014 I42.532 J26.287
G01 X48.001 Y-27.713 
G03 X50 Y-0.001 I25 J43.301
G01 X345.359 Y199.393 
G03 X14.531 Y73.918 I-25 J43.301
G03 X-426.139 Y246.032 I-513.956 J-398.134
G03 X-56.75 Y-49.542 I-6.75 J-49.542
G01 X0 Y-398.786 
G03 X5.968 Y-23.69 I50 J0
G01 X3.002 Y0.001 
G01 X8.175 Y-0.487 
M8
G40
M05
G1 X-177.261 Y-26.107 
M06
G41 R=P1100 E0
M7
G01 X0.116 Y-24.808 
G01 X1.499 Y-2.6 
G03 X23.5 Y6.676 I-1.499 J49.978
G01 X48.001 Y27.713 
G03 X25 Y43.301 I-25 J43.301
G01 X0 Y398.786 
G03 X-56.75 Y49.542 I-50 J0
G03 X-426.138 Y-246.031 I87.817 J-644.166
G03 X14.53 Y-73.918 I39.53 J-30.617
G01 X345.358 Y-199.393 
G03 X23.499 Y-6.676 I25 J43.301
G01 X1.501 Y2.6 
G01 X4.993 Y5.845 
M8
G40
M05
G1 X-69.356 Y-163.773 
M06
G41 R=P1100 E0
M7
G01 X24.393 Y-14.105 
G01 X3.001 Y-0.002 
G03 X5.969 Y23.69 I-44.031 J23.691
G01 X0 Y55.427 
G03 X-25 Y43.301 I-50 J0
G01 X-345.358 Y199.393 
G03 X-71.28 Y-24.376 I-25 J-43.301
G03 X0 Y-492.062 I601.773 J-246.031
G03 X71.279 Y-24.376 I46.28 J18.925
G01 X345.359 Y199.393 
G03 X17.532 Y17.013 I-25 J43.301
G01 X-1.501 Y2.6 
G01 X-3.067 Y7.086 
M8
G40
M05
G1 X266.692 Y44.316 
M06
G41 R=P1100 E0
M7
G01 X31.736 Y0 
G01 X2.6 Y1.5 
G03 X-257.991 Y-1.499 I-128.991 J-1.499
G03 X257.991 Y-1.501 I129 J0
G01 X-2.6 Y1.5 
G01 X-9.184 Y4.815 
M8
G40
M05
G1 X-178.091 Y-599.413 
M06
G41 R=P1100 E0
M7
G01 X27.273 Y0.11 
G01 X2.611 Y1.48 
G01 X0 Y397.286 
G03 X-25 Y43.301 I-50 J0
G01 X-48 Y27.713 
G03 X-50 Y0 I-25 J-43.301
G01 X-345.358 Y-199.393 
G03 X-14.53 Y-73.918 I25 J-43.301
G03 X426.132 Y-246.03 I513.956 J398.135
G03 X56.734 Y48.041 I6.757 J49.541
G01 X-2.589 Y1.52 
G01 X-7.6 Y4.364 
M8
G40
M05
G1 X529.712 Y211.913 
M06
G41 R=P1100 E0
M7
G01 X23.307 Y-18.227 
G01 X2.976 Y-0.387 
G03 X-15.425 Y72.724 I-40.426 J29.423
G01 X-345.359 Y199.393 
G03 X-50 Y0 I-25 J-43.301
G01 X-48 Y-27.713 
G03 X-25 Y-43.301 I25 J-43.301
G01 X0 Y-398.785 
G03 X56.75 Y-49.542 I50 J0
G03 X425.212 Y244.838 I-87.817 J644.166
G01 X-1.154 Y2.773 
G01 X-3.179 Y8.326 
M8
G40
M05
G1 X-30.828 Y-346.054 
M06
G41 R=P1100 E0
M7
G01 X0 Y33.539 
G01 X-7.758 Y13.402 
G01 X-2.706 Y1.299 
G02 X-935.914 Y1371.008 I-467.336 J685.928
G02 X938.383 Y-1369.32 I468.577 J-685.081
G01 X0.237 Y-2.988 
G01 X-0.337 Y-7.438 
M8
G40
(HEADS 1 PITCH 0)
G253 (ANZAHL BRENNER:1 ABSTAND:0)
G253 (Teil 81: VERSTEIFUNGSBLECH__SWD_9602-0001-P2098_001_Blatt2)
M05
G1 X149.394 Y-53.282 
M06
G41 R=P1100 E0
M7
G01 X-34.189 Y0 
G01 X-2.6 Y-1.5 
G03 X69.968 Y1.499 I34.968 J1.5
G03 X-69.968 Y1.5 I-35 J0.001
G01 X2.6 Y-1.5 
G01 X7.003 Y-5.217 
M8
G40
M05
G1 X420.364 Y-54.783 
M06
G41 R=P1100 E0
M7
G01 X-25 Y0 
G01 X-267.715 Y0 
G03 X-24.205 Y-2.974 I0 J-100
G01 X-58.717 Y-14.648 
G02 X-59.269 Y146.958 I-19.364 J77.621
G03 X39.997 Y42.833 I-49.882 J86.67
G01 X59.908 Y122.831 
G01 X310 Y0 
G03 X30 Y-30 I30 J0
G01 X0 Y-195 
G03 X-30 Y-30 I0 J-30
G01 X0 Y-40 
G01 X0 Y-5 
M8
G40
G253 (Teil 82: VERSTEIFUNGSBLECH__SWD_9602-0001-P2098_001_Blatt2)
M05
G1 X-1182.807 Y1856.507 
M06
G41 R=P1100 E0
M7
G01 X26.458 Y0 
G01 X2.6 Y1.5 
G03 X-69.968 Y-1.5 I-34.968 J-1.5
G03 X69.968 Y-1.5 I35 J0
G01 X-2.6 Y1.5 
G01 X-6.61 Y3.497 
M8
G40
M05
G1 X-425.758 Y-244.803 
M06
G41 R=P1100 E0
M7
G01 X0 Y36.306 
G01 X0 Y195 
G03 X30 Y30 I0 J30
G01 X0 Y40 
G01 X267.715 Y0 
G03 X24.204 Y2.973 I0 J100
G01 X58.717 Y14.648 
G02 X59.269 Y-146.958 I19.364 J-77.621
G03 X-39.997 Y-42.833 I49.882 J-86.671
G01 X-59.908 Y-122.83 
G01 X-310 Y0 
G03 X-30 Y30 I-30 J0
G01 X-6.961 Y0 
M8
G40
G253 (Teil 83: VERSTEIFUNGSBLECH__SWD_9602-0001-P2098_001_Blatt2)
M05
G1 X811.063 Y204.649 
M06
G41 R=P1100 E0
M7
G01 X-34.191 Y0 
G01 X-2.6 Y-1.5 
G03 X69.968 Y1.499 I34.968 J1.5
G03 X-69.968 Y1.5 I-35 J0.001
G01 X2.6 Y-1.5 
G01 X5.22 Y-4.892 
M8
G40
M05
G1 X453.016 Y-200.108 
M06
G41 R=P1100 E0
M7
G01 X-25.868 Y0 
G03 X-30 Y-30 I0 J-30
G01 X-310 Y0 
G01 X-59.908 Y122.83 
G03 X-39.997 Y42.833 I-89.879 J-43.837
G02 X59.27 Y146.958 I39.906 J69.336
G01 X58.716 Y-14.648 
G03 X24.204 Y-2.974 I24.205 J97.026
G01 X267.716 Y0 
G01 X0 Y-40 
G03 X30 Y-30 I30 J0
G01 X0 Y-195 
G01 X0 Y-7.731 
M8
G40
G253 (Teil 84: VERSTEIFUNGSBLECH__SWD_9602-0001-P2098_001_Blatt2)
M05
G1 X189.848 Y-337.645 
M06
G41 R=P1100 E0
M7
G01 X30.047 Y0 
G01 X2.6 Y1.5 
G03 X-69.968 Y-1.5 I-34.968 J-1.5
G03 X69.968 Y-1.5 I35 J0
G01 X-2.6 Y1.5 
G01 X-7.898 Y4.537 
M8
G40
M05
G1 X-11.671 Y-124.936 
M06
G41 R=P1100 E0
M7
G01 X-4.142 Y38.268 
G01 X-1.764 Y2.428 
G02 X-84.513 Y99.067 I-6.892 J79.703
G01 X14.648 Y58.716 
G03 X2.974 Y24.204 I-97.026 J24.205
G01 X0 Y267.716 
G01 X40 Y0 
G03 X30 Y30 I0 J30
G01 X195 Y0 
G03 X30 Y-30 I30 J0
G01 X0 Y-310 
G01 X-122.83 Y-59.908 
G03 X-42.833 Y-39.997 I43.837 J-89.879
G02 X-59.462 Y-39.483 I-69.336 J39.906
G01 X-1.218 Y-2.743 
G01 X-4.394 Y-8.304 
M8
G40
G253 (Teil 85: Art. 10.842.194.0)
M05
G1 X260.25 Y576.993 
M06
G41 R=P1100 E0
M7
G01 X0 Y-34.1 
G01 X-15.768 Y0 
G01 X-2.902 Y0.768 
G02 X-2.328 Y-0.575 I-2.328 J4.425
G01 X-68 Y0 
G03 X-10 Y-10 I0 J-10
G01 X0 Y-17.5 
G02 X-5 Y-5 I-5 J0
G01 X-240 Y0 
G02 X-5 Y5 I0 J5
G01 X0 Y17.5 
G03 X-10 Y10 I-10 J0
G01 X-68 Y0 
G02 X-5 Y5 I0 J5
G01 X0 Y110 
G02 X5 Y5 I5 J0
G01 X53.139 Y0 
G02 X4.83 Y-3.325 I-0.137 J-5.37
G03 X3.636 Y-1.802 I3.4 J2.291
G01 X36.583 Y2.109 
G03 X19.338 Y12.32 I-1.353 J23.461
G02 X8.456 Y15.609 I402.921 J-208.17
G02 X44.794 Y26.089 I44.831 J-25.474
G01 X64.485 Y0 
G02 X45.345 Y-27.084 I0 J-51.5
G01 X7.868 Y-14.613 
G03 X19.338 Y-12.32 I20.691 J11.141
G01 X36.62 Y-2.111 
G03 X4.227 Y2.835 I0.178 J4.303
G02 X4.203 Y2.294 I4.235 J-2.761
G01 X53.139 Y0 
G02 X5 Y-5 I0 J-5
G01 X0 Y-110 
G02 X-0.559 Y-2.296 I-5 J0
G01 X0.788 Y-2.896 
G01 X1.642 Y-5.147 
M8
G40
(HEADS 1 PITCH 230)
G253 (ANZAHL BRENNER:1 ABSTAND:230)
G253 (Teil 86: Art. 10.842.168.1)
M05
G1 X753.271 Y-1124.525 
M06
G41 R=P1100 E0
M7
G01 X13.502 Y-24.815 
G01 X2.545 Y-1.591 
G01 X51.652 Y27.464 
G02 X13.524 Y-4.135 I4.695 J-8.829
G01 X42.018 Y-79.024 
G03 X13.524 Y-4.135 I8.83 J4.695
G01 X66.943 Y35.594 
G02 X12.886 Y-3.094 I4.681 J-8.887
G01 X61.735 Y-88.165 
G03 X5.66 Y-1.881 I4.118 J2.934
G01 X3.259 Y1.634 
G02 X6.656 Y-2.122 I2.241 J-4.47
G01 X40.368 Y-75.922 
G02 X-2.067 Y-6.762 I-4.415 J-2.347
G01 X-17.973 Y-9.557 
G01 X-37.504 Y-22.803 
G03 X-11.103 Y-14.681 I13.157 J-21.489
G01 X-11.386 Y-41.06 
G02 X-34.592 Y-43.101 I-67.454 J18.706
G01 X-45.071 Y-23.964 
G02 X-55.076 Y-4.576 I-32.863 J61.807
G01 X-40.406 Y13.52 
G03 X-18.38 Y-0.995 I-7.921 J-23.919
G01 X-39.876 Y-18.341 
G01 X-17.973 Y-9.557 
G02 X-6.762 Y2.067 I-2.347 J4.415
G01 X-40.375 Y75.933 
G02 X2.067 Y6.762 I4.415 J2.347
G01 X2.363 Y1.256 
G03 X2.321 Y6.206 I-2.398 J4.434
G01 X-38.571 Y100.482 
G02 X4.641 Y12.413 I9.392 J3.563
G01 X66.943 Y35.594 
G03 X4.135 Y13.524 I-4.695 J8.83
G01 X-42.018 Y79.024 
G02 X4.135 Y13.524 I8.83 J4.695
G01 X51.652 Y27.464 
G01 X0.104 Y3 
G01 X0.67 Y8.733 
M8
G40
G253 (Teil 87: Art. 10.842.168.1)
M05
G1 X89.696 Y199.854 
M06
G41 R=P1100 E0
M7
G01 X30.046 Y0 
G01 X2.6 Y1.5 
G01 X0 Y58.5 
G02 X10 Y10 I10 J0
G01 X89.5 Y0 
G03 X10 Y10 I0 J10
G01 X0 Y75.818 
G02 X8.781 Y9.925 I10.045 J-0.039
G01 X106.828 Y13.118 
G03 X4.318 Y4.115 I-0.657 J5.013
G01 X0.087 Y3.644 
G02 X4.999 Y4.88 I4.999 J-0.12
G01 X85.987 Y0 
G02 X5 Y-5 I0 J-5
G01 X0 Y-20.356 
G01 X2.527 Y-43.819 
G03 X7.75 Y-16.695 I25.15 J1.528
G01 X30.908 Y-29.33 
G02 X21.816 Y-50.777 I-48.184 J-50.777
G01 X0 Y-51.046 
G02 X-21.816 Y-50.777 I-70 J0
G01 X-30.908 Y-29.33 
G03 X-7.75 Y-16.695 I17.4 J-18.224
G01 X-2.527 Y-43.819 
G01 X0 Y-20.356 
G02 X-5 Y-5 I-5 J0
G01 X-86 Y0 
G02 X-5 Y5 I0 J5
G01 X0 Y2.676 
G03 X-4.391 Y4.963 I-5.041 J-0.036
G01 X-106.828 Y13.118 
G02 X-8.781 Y9.926 I1.263 J9.965
G01 X0 Y75.818 
G03 X-10 Y10 I-10 J0
G01 X-89.5 Y0 
G02 X-10 Y10 I0 J10
G01 X0 Y58.5 
G01 X-2.6 Y1.5 
G01 X-7.359 Y4.436 
M8
G40
G253 (Teil 88: Art. 10.842.168.1)
M05
G1 X-120.466 Y180.759 
M06
G41 R=P1100 E0
M7
G01 X11.938 Y23.732 
G01 X-0.156 Y2.998 
G01 X-52.124 Y26.558 
G02 X-4.37 Y13.45 I4.54 J8.91
G01 X40.632 Y79.745 
G03 X-4.37 Y13.45 I-8.91 J4.54
G01 X-67.554 Y34.421 
G02 X-4.857 Y12.33 I4.595 J8.932
G01 X36.811 Y101.14 
G03 X-1.706 Y5.716 I-4.765 J1.69
G01 X-3.207 Y1.732 
G02 X-2.079 Y6.669 I2.376 J4.399
G01 X39.037 Y76.615 
G02 X6.725 Y2.185 I4.455 J-2.27
G01 X18.137 Y-9.241 
G01 X40.19 Y-17.642 
G03 X18.394 Y-0.675 I10.057 J23.103
G01 X40.165 Y14.224 
G02 X55.147 Y-3.614 I23.367 J-65.985
G01 X45.483 Y-23.175 
G02 X35.338 Y-42.49 I-31.779 J-62.37
G01 X12.101 Y-40.854 
G03 X11.357 Y-14.485 I24.137 J7.23
G01 X37.896 Y-22.145 
G01 X18.137 Y-9.241 
G02 X2.185 Y-6.725 I-2.27 J-4.455
G01 X-39.043 Y-76.627 
G02 X-6.725 Y-2.185 I-4.455 J2.27
G01 X-2.385 Y1.215 
G03 X-6.415 Y-1.659 I-2.256 J-4.508
G01 X-60.187 Y-89.229 
G02 X-12.83 Y-3.318 I-8.305 J5.65
G01 X-67.554 Y34.42 
G03 X-13.45 Y-4.37 I-4.54 J-8.91
G01 X-40.632 Y-79.745 
G02 X-13.45 Y-4.37 I-8.91 J4.54
G01 X-52.124 Y26.558 
G01 X-2.517 Y-1.636 
G01 X-8.134 Y-3.618 
M8
G40
G253 (Teil 89: Art. 10.842.168.1)
M05
G1 X-241.457 Y-20.585 
M06
G41 R=P1100 E0
M7
G01 X-13.486 Y25.748 
G01 X-2.545 Y1.591 
G01 X-51.652 Y-27.464 
G02 X-13.524 Y4.135 I-4.695 J8.83
G01 X-42.018 Y79.024 
G03 X-13.524 Y4.135 I-8.829 J-4.695
G01 X-66.943 Y-35.594 
G02 X-12.886 Y3.094 I-4.681 J8.887
G01 X-61.735 Y88.165 
G03 X-5.66 Y1.881 I-4.118 J-2.934
G01 X-3.259 Y-1.634 
G02 X-6.656 Y2.122 I-2.241 J4.47
G01 X-40.368 Y75.922 
G02 X2.067 Y6.762 I4.415 J2.347
G01 X17.973 Y9.557 
G01 X37.504 Y22.803 
G03 X11.103 Y14.68 I-13.156 J21.489
G01 X11.386 Y41.06 
G02 X34.591 Y43.1 I67.454 J-18.706
G01 X45.071 Y23.965 
G02 X55.075 Y4.576 I32.863 J-61.806
G01 X40.407 Y-13.52 
G03 X18.379 Y0.995 I7.922 J23.919
G01 X39.876 Y18.341 
G01 X17.973 Y9.557 
G02 X6.762 Y-2.067 I2.347 J-4.415
G01 X40.375 Y-75.933 
G02 X-2.067 Y-6.762 I-4.415 J-2.347
G01 X-2.363 Y-1.256 
G03 X-2.321 Y-6.207 I2.398 J-4.434
G01 X38.571 Y-100.482 
G02 X-4.641 Y-12.413 I-9.391 J-3.563
G01 X-66.943 Y-35.594 
G03 X-4.135 Y-13.524 I4.695 J-8.829
G01 X42.018 Y-79.024 
G02 X-4.135 Y-13.524 I-8.829 J-4.695
G01 X-51.652 Y-27.464 
G01 X-0.104 Y-3 
G01 X-0.795 Y-7.19 
M8
G40
G253 (Teil 90: Art. 10.842.168.1)
M05
G1 X-87.893 Y-202.629 
M06
G41 R=P1100 E0
M7
G01 X-31.66 Y0 
G01 X-2.6 Y-1.5 
G01 X0 Y-58.5 
G02 X-10 Y-10 I-10 J0
G01 X-89.5 Y0 
G03 X-10 Y-10 I0 J-10
G01 X0 Y-75.818 
G02 X-8.781 Y-9.925 I-10.045 J0.039
G01 X-106.828 Y-13.118 
G03 X-4.318 Y-4.115 I0.657 J-5.013
G01 X-0.087 Y-3.644 
G02 X-4.999 Y-4.88 I-4.999 J0.12
G01 X-85.987 Y0 
G02 X-5 Y5 I0 J5
G01 X0 Y20.356 
G01 X-2.527 Y43.819 
G03 X-7.75 Y16.695 I-25.15 J-1.528
G01 X-30.908 Y29.33 
G02 X-21.816 Y50.778 I48.184 J50.777
G01 X0 Y51.045 
G02 X21.816 Y50.777 I70 J0
G01 X30.907 Y29.329 
G03 X7.75 Y16.695 I-17.4 J18.224
G01 X2.527 Y43.819 
G01 X0 Y20.356 
G02 X5 Y5 I5 J0
G01 X86 Y0 
G02 X5 Y-5 I0 J-5
G01 X0 Y-2.676 
G03 X4.391 Y-4.963 I5.041 J0.036
G01 X106.828 Y-13.118 
G02 X8.781 Y-9.925 I-1.263 J-9.965
G01 X0 Y-75.818 
G03 X10 Y-10 I10 J0
G01 X89.5 Y0 
G02 X10 Y-10 I0 J-10
G01 X0 Y-58.5 
G01 X2.6 Y-1.5 
G01 X6.942 Y-5.208 
M8
G40
G253 (Teil 91: Art. 10.842.168.1)
M05
G1 X121.547 Y-179.815 
M06
G41 R=P1100 E0
M7
G01 X-11.412 Y-23.707 
G01 X0.156 Y-2.998 
G01 X52.124 Y-26.558 
G02 X4.37 Y-13.45 I-4.54 J-8.91
G01 X-40.632 Y-79.745 
G03 X4.37 Y-13.45 I8.91 J-4.54
G01 X67.554 Y-34.421 
G02 X4.857 Y-12.33 I-4.595 J-8.932
G01 X-36.811 Y-101.14 
G03 X1.706 Y-5.716 I4.765 J-1.69
G01 X3.207 Y-1.732 
G02 X2.079 Y-6.669 I-2.376 J-4.399
G01 X-39.037 Y-76.615 
G02 X-6.725 Y-2.185 I-4.455 J2.27
G01 X-18.137 Y9.241 
G01 X-40.19 Y17.642 
G03 X-18.394 Y0.674 I-10.056 J-23.103
G01 X-40.165 Y-14.224 
G02 X-55.147 Y3.615 I-23.367 J65.985
G01 X-45.482 Y23.174 
G02 X-35.338 Y42.491 I31.78 J62.37
G01 X-12.101 Y40.853 
G03 X-11.357 Y14.485 I-24.137 J-7.231
G01 X-37.896 Y22.145 
G01 X-18.137 Y9.241 
G02 X-2.185 Y6.725 I2.27 J4.455
G01 X39.043 Y76.626 
G02 X6.725 Y2.185 I4.455 J-2.27
G01 X2.385 Y-1.215 
G03 X6.415 Y1.659 I2.256 J4.508
G01 X60.187 Y89.229 
G02 X12.83 Y3.318 I8.305 J-5.65
